!!!COM: Haydn, Franz Joseph
!!!OPR: Symphony in G Minor
!!!OTL: Affettuoso 
!!!OMV: 1
!!!SCT: H I:83
!!!SCA: Thematisch-bibliographisches Werkevererzeichnis (A. van Hoboken)
!!!YOR: RISM H 3039, Choron Edition
!!!EED: Frances Bennion
!!!ENC: Frances Bennion
!!!CDT: 1732/3/31/-1809/5/31/
!!!OCY: Österreich
!!!YEC: Copyright (c) 1994, 2000 Center for Computer Assisted Research in the Humanities
!!!YEM: Rights to all derivative editions reserved.
!!!YEM: Refer to licensing agreement for further details.
!!!YEN: United States of America
**kern	**kern	**kern	**kern	**kern	**kern	**kern	**kern	**kern	**kern	**kern
*k[]	*k[b-e-]	*k[b-e-]	*k[]	*k[b-e-]	*k[b-e-]	*k[b-e-]	*k[b-e-]	*k[b-e-]	*k[b-e-]	*k[b-e-]
*C:	*C:	*C:	*C:	*C:	*C:	*C:	*C:	*C:	*C:	*C:
*clefF	*clefC3	*clefF4	*clefF	*clefF	*clefF	*clefF	*clefF4	*clefF4	*clefF	*clefF
*M4/4	*M4/4	*M4/4	*M4/4	*M4/4	*M4/4	*M4/4	*M4/4	*M4/4	*M4/4	*M4/4
*tb24	*tb24	*tb24	*tb24	*tb24	*tb24	*tb24	*tb24	*tb24	*tb24	*tb24
=1	=1	=1	=1	=1	=1	=1	=1	=1	=1	=1
[1cc	8B-	8G	[1c	1gg	1b-	2gg	[1B-	[1B-	2gg	2g
.	8B-	8G	.	.	.	.	.	.	.	.
.	8B-	8G	.	.	.	.	.	.	.	.
.	8B-	8G	.	.	.	.	.	.	.	.
.	8B-	8G	.	.	.	2bb-	.	.	2bb-	2b-
.	8B-	8G	.	.	.	.	.	.	.	.
.	8B-	8G	.	.	.	.	.	.	.	.
.	8B-	8G	.	.	.	.	.	.	.	.
=2	=2	=2	=2	=2	=2	=2	=2	=2	=2	=2
1cc]	8B-	8G	1c]	[2bb-	2cc#	2ccc#	2.B-]	2.B-]	2ccc#	2cc#
.	8B-	8G	.	.	.	.	.	.	.	.
.	8B-	8G	.	.	.	.	.	.	.	.
.	8B-	8G	.	.	.	.	.	.	.	.
.	8B-	8G	.	4bb-]	4dd	4ddd	.	.	4ddd	4dd
.	8B-	8G	.	.	.	.	.	.	.	.
.	8B-	8G	.	4bb-	4dd	4ddd	4G	4G	8.ddd	8.dd
.	8B-	8G	.	.	.	.	.	.	.	.
.	.	.	.	.	.	.	.	.	16ddd	16dd
=3	=3	=3	=3	=3	=3	=3	=3	=3	=3	=3
[1g	8A	8F#	[1G	[1aa	[1dd	[1ddd	[1A	[1A	4ddd	4dd
.	8A	8F#	.	.	.	.	.	.	.	.
.	8A	8F#	.	.	.	.	.	.	8.aa	8.a
.	8A	8F#	.	.	.	.	.	.	.	.
.	.	.	.	.	.	.	.	.	16aa	16a
.	8A	8F#	.	.	.	.	.	.	4aa	4a
.	8A	8F#	.	.	.	.	.	.	.	.
.	8A	8F#	.	.	.	.	.	.	8.dd	8.d
.	8A	8F#	.	.	.	.	.	.	.	.
.	.	.	.	.	.	.	.	.	16dd	16d
=4	=4	=4	=4	=4	=4	=4	=4	=4	=4	=4
4g]	4A	4F#	4G]	4aa]	4dd]	4ddd]	4A]	4A]	4dd	4d
2.r	2.r	2.r	2.r	2.r	2.r	2.r	2.r	2.r	2.r	2.r
=5	=5	=5	=5	=5	=5	=5	=5	=5	=5	=5
1r	8A	8F#	1r	1cc	1a	2cc	1A	1A	2cc	2c
.	8A	8F#	.	.	.	.	.	.	.	.
.	8A	8F#	.	.	.	.	.	.	.	.
.	8A	8F#	.	.	.	.	.	.	.	.
.	8A	8F#	.	.	.	2ee-	.	.	2ee-	2e-
.	8A	8F#	.	.	.	.	.	.	.	.
.	8A	8F#	.	.	.	.	.	.	.	.
.	8A	8F#	.	.	.	.	.	.	.	.
=6	=6	=6	=6	=6	=6	=6	=6	=6	=6	=6
1r	8A	8F#	1r	1ee-	1cc	2bb-	1c	1F#	2bb-	2b-
.	8A	8F#	.	.	.	.	.	.	.	.
.	8A	8F#	.	.	.	.	.	.	.	.
.	8A	8F#	.	.	.	.	.	.	.	.
.	8A	8F#	.	.	.	4aa	.	.	4aa	4a
.	8A	8F#	.	.	.	.	.	.	.	.
.	8A	8F#	.	.	.	4ccc	.	.	8.ccc	8.cc
.	8A	8F#	.	.	.	.	.	.	.	.
.	.	.	.	.	.	.	.	.	16ccc	16cc
=7	=7	=7	=7	=7	=7	=7	=7	=7	=7	=7
1g	8A 8d	8F#	1G	[1dd	2cc	1ccc	1A	1A	4ccc	4cc
.	8A 8d	8F#	.	.	.	.	.	.	.	.
.	8A 8d	8F#	.	.	.	.	.	.	8.dd	8.d
.	8d 8A	8F#	.	.	.	.	.	.	.	.
.	.	.	.	.	.	.	.	.	16dd	16d
.	8A 8d	8F#	.	.	2a	.	.	.	4dd	4d
.	8A 8d	8F#	.	.	.	.	.	.	.	.
.	8d 8A	8F#	.	.	.	.	.	.	8.ccc	8.cc
.	8A 8d	8F#	.	.	.	.	.	.	.	.
.	.	.	.	.	.	.	.	.	16ccc	16cc
=8	=8	=8	=8	=8	=8	=8	=8	=8	=8	=8
4cc	4d 4B-	4G	4c	4dd]	4b-	4bb-	4G	4G	4bb-	4b-
2.r	2.r	2.r	2.r	2.r	2.r	2.r	2.r	2.r	2.r	2.r
=9	=9	=9	=9	=9	=9	=9	=9	=9	=9	=9
[1cc	8B-	8G	[1c	2ee-	1b-	2ee-	1B-	1B-	2ee-	2e-
.	8B-	8G	.	.	.	.	.	.	.	.
.	8B-	8G	.	.	.	.	.	.	.	.
.	8B-	8G	.	.	.	.	.	.	.	.
.	8B-	8G	.	2gg	.	2gg	.	.	2gg	2g
.	8B-	8G	.	.	.	.	.	.	.	.
.	8B-	8G	.	.	.	.	.	.	.	.
.	8B-	8G	.	.	.	.	.	.	.	.
=10	=10	=10	=10	=10	=10	=10	=10	=10	=10	=10
2cc]	8A	8G	2c]	2cc#	2.a	2cc#	2.A	2.A	2cc#	2c#
.	8A	8G	.	.	.	.	.	.	.	.
.	8A	8G	.	.	.	.	.	.	.	.
.	8A	8G	.	.	.	.	.	.	.	.
4g	4A	4F#	4G	4dd	.	4dd	.	.	4dd	4d
4g	8.A	8.F#	4G	4ccc	4dd	4aa	4F#	4F#	8.cc	8.d
.	16A	16F#	.	.	.	.	.	.	16cc	16d
=11	=11	=11	=11	=11	=11	=11	=11	=11	=11	=11
4g	8.G	8.G	4G	4bb	4dd	4dd	4G	4G	8.b	8.d
.	16G	16G	.	.	.	.	.	.	16b	16d
4g	8.G	8.GG	4G	4bb-	4d	4bb-	4GG	4GG	8.b-	8.d
.	16G	16GG	.	.	.	.	.	.	16b-	16d
4cc	8.c	8.C	4c	4aa	4e-	4aa	4C	4C	8.a	8.e-
.	16c	16C	.	.	.	.	.	.	16a	16e-
4cc	8.c#	8.C#	4c	4gg	4e	4gg	4C#	4C#	8.g	8.e
.	16c#	16C#	.	.	.	.	.	.	16g	16e
=12	=12	=12	=12	=12	=12	=12	=12	=12	=12	=12
4g	4d	4D	4G	4dd	4d	4dd	4D	4D	4d	4d
8.g	2r	2r	8.G	8.dd	8.d	8.ddd	8.D	8.D	2r	2r
16g	.	.	16G	16dd	16d	16ddd	16D	16D	.	.
4g	.	.	4G	4dd	4d	4ddd	4D	4D	.	.
4r	8.d	8.D	4r	4r	4r	4r	4r	4r	8.gg	8.b-
.	16d	16D	.	.	.	.	.	.	16gg	16b-
=13	=13	=13	=13	=13	=13	=13	=13	=13	=13	=13
4r	4d	4D	4r	4r	4r	4r	4r	4r	4ff#	4a
8.g	2r	2r	8.G	8.dd	8.d	8.ddd	8.D	8.D	2r	2r
16g	.	.	16G	16dd	16d	16ddd	16D	16D	.	.
4g	.	.	4G	4dd	4d	4ddd	4D	4D	.	.
4r	8.d	8.D	4r	4r	4r	4r	4r	4r	8.bb-	8.gg
.	16d	16D	.	.	.	.	.	.	16bb-	16gg
=14	=14	=14	=14	=14	=14	=14	=14	=14	=14	=14
4r	4d	4D	4r	4r	4r	4r	4r	4r	4aa	4ff#
8.g	2r	2r	8.G	8.dd	8.d	8.ddd	8.D	8.D	2r	2r
16g	.	.	16G	16dd	16d	16ddd	16D	16D	.	.
4g	.	.	4G	4dd	4d	4ddd	4D	4D	.	.
4r	8.d	8.D	4r	4r	4r	4r	4r	4r	8.gg	8.b-
.	16d	16D	.	.	.	.	.	.	16gg	16b-
=15	=15	=15	=15	=15	=15	=15	=15	=15	=15	=15
4r	4d	4D	4r	4r	4r	4r	4r	4r	4ff#	4a
8.g	2r	2r	8.G	8.dd	8.d	8.ddd	8.D	8.D	2r	2r
16g	.	.	16G	16dd	16d	16ddd	16D	16D	.	.
4g	.	.	4G	4dd	4d	4ddd	4D	4D	.	.
8.cc	8.d	8.D	8.c	8.gg	8.cc#	8.ccc#	8.E-	8.E-	8.ccc#	8.gg
16cc	16d	16D	16c	16gg	16cc#	16ccc#	16E-	16E-	16ccc#	16gg
=16	=16	=16	=16	=16	=16	=16	=16	=16	=16	=16
4g	4d	4D	4G	4ff#	4dd	4ddd	4D	4D	4ddd	4ff#
2.r	2.r	2.r	2.r	2.r	2.r	2.r	2.r	2.r	2.r	2.r
=17	=17	=17	=17	=17	=17	=17	=17	=17	=17	=17
[1cc	8B-	8G	[1c	1gg	1b-	2gg	[1B-	[1B-	2gg	2g
.	8B-	8G	.	.	.	.	.	.	.	.
.	8B-	8G	.	.	.	.	.	.	.	.
.	8B-	8G	.	.	.	.	.	.	.	.
.	8B-	8G	.	.	.	2bb-	.	.	2bb-	2b-
.	8B-	8G	.	.	.	.	.	.	.	.
.	8B-	8G	.	.	.	.	.	.	.	.
.	8B-	8G	.	.	.	.	.	.	.	.
=18	=18	=18	=18	=18	=18	=18	=18	=18	=18	=18
1cc_	8B-	8G	1c_	1bb-	2cc#	2ccc#	1B-_	1B-_	2ccc#	2cc#
.	8B-	8G	.	.	.	.	.	.	.	.
.	8B-	8G	.	.	.	.	.	.	.	.
.	8B-	8G	.	.	.	.	.	.	.	.
.	8B-	8G	.	.	4dd	4ddd	.	.	4ddd	4dd
.	8B-	8G	.	.	.	.	.	.	.	.
.	8B-	8G	.	.	[4dd	8.ddd	.	.	8.ddd	8.dd
.	8B-	8G	.	.	.	.	.	.	.	.
.	.	.	.	.	.	16ddd	.	.	16ddd	16dd
=19	=19	=19	=19	=19	=19	=19	=19	=19	=19	=19
2cc]	8B-	8G	2c]	1bb-	4dd]	4ddd	1B-]	1B-]	4ddd	4dd
.	8b-	8G	.	.	.	.	.	.	.	.
.	8b-	8G	.	.	2ee-	8.eee-	.	.	8.eee-	8.ee-
.	8b-	8G	.	.	.	.	.	.	.	.
.	.	.	.	.	.	16eee-	.	.	16eee-	16ee-
2r	8b-	8G	2r	.	.	4eee-	.	.	4eee-	4ee-
.	8b-	8G	.	.	.	.	.	.	.	.
.	8b-	8G	.	.	4ee-	8.eee-	.	.	8.eee-	8.ee-
.	8b-	8G	.	.	.	.	.	.	.	.
.	.	.	.	.	.	16eee-	.	.	16eee-	16ee-
=20	=20	=20	=20	=20	=20	=20	=20	=20	=20	=20
1r	8cc	8A	1r	1ccc	1ee-	8.eee-	1F	1F	8.eee-	8.e- 8.ee-
.	8cc	8A	.	.	.	.	.	.	.	.
.	.	.	.	.	.	16eee-	.	.	16eee-	16e- 16ee-
.	8cc	8A	.	.	.	8.ccc	.	.	8.ccc	8.e- 8.ee-
.	8cc	8A	.	.	.	.	.	.	.	.
.	.	.	.	.	.	16ccc	.	.	16ccc	16ee- 16e-
.	8cc	8A	.	.	.	8.aa	.	.	8.aa	8.e- 8.ee-
.	8cc	8A	.	.	.	.	.	.	.	.
.	.	.	.	.	.	16aa	.	.	16aa	16ee- 16e-
.	8cc	8A	.	.	.	8.ee-	.	.	8.ee-	8.ee- 8.e-
.	8cc	8A	.	.	.	.	.	.	.	.
.	.	.	.	.	.	16ee-	.	.	16ee-	16ee- 16e-
=21	=21	=21	=21	=21	=21	=21	=21	=21	=21	=21
2g	2b-	2B-	2g	[1bb-	1dd	8.dd	2B-	2B-	8.dd	8.dd 8.f
.	.	.	.	.	.	16bb-	.	.	16bb-	16dd 16f
.	.	.	.	.	.	8.bb-	.	.	8.bb-	8.dd 8.f
.	.	.	.	.	.	16bb-	.	.	16bb-	16f 16dd
2r	2f	2d	2r	.	.	8.bb-	2d	2d	8.bb-	8.dd
.	.	.	.	.	.	16bb-	.	.	16bb-	16dd
.	.	.	.	.	.	8.bb-	.	.	8.bb-	8.dd
.	.	.	.	.	.	16bb-	.	.	16bb-	16dd
=22	=22	=22	=22	=22	=22	=22	=22	=22	=22	=22
1r	2g	2e	1r	2bb-]	2dd-	8.bb-	2e	2e	8.bb-	8.dd-
.	.	.	.	.	.	16bb-	.	.	16bb-	16dd-
.	.	.	.	.	.	8.bb-	.	.	8.bb-	8.dd-
.	.	.	.	.	.	16bb-	.	.	16bb-	16dd-
.	4f	4f	.	4aa	4cc	8.aa	4f	4f	8.aa	8.cc
.	.	.	.	.	.	16aa	.	.	16aa	16cc
.	8.f	8.d	.	4aa-	[4b-	8.aa-	4d	4d	8.aa-	8.b-
.	16f	16d	.	.	.	16aa-	.	.	16aa-	16b-
=23	=23	=23	=23	=23	=23	=23	=23	=23	=23	=23
1r	8.e-	8.e-	1r	2gg	4b-]	8.gg	4e-	4e-	8.gg	8.b-
.	16e-	16e-	.	.	.	16gg	.	.	16gg	16b-
.	8.e-	8.c	.	.	2a	8.gg	4c	4c	8.gg	8.a
.	16e-	16c	.	.	.	16gg	.	.	16gg	16a
.	8.d	8.d	.	2ff	.	8.ff	4d	4d	8.ff	8.a
.	16d	16d	.	.	.	16ff	.	.	16ff	16a
.	8.d	8.B	.	.	[4g	8.ff	4B	4B	8.ff	8.g
.	16d	16B	.	.	.	16ff	.	.	16ff	16g
=24	=24	=24	=24	=24	=24	=24	=24	=24	=24	=24
1r	8.c	8.c	1r	2ee-	4g]	8.ee-	4c	4c	8.ee-	8.g
.	16c	16c	.	.	.	16ee-	.	.	16ee-	16g
.	8.c	8.A	.	.	2f	8.ee-	4A	4A	8.ee-	8.f
.	16c	16A	.	.	.	16ee-	.	.	16ee-	16f
.	8.B-	8.B-	.	2dd	.	8.dd	4B-	4B-	8.dd	8.f
.	16B-	16B-	.	.	.	16dd	.	.	16dd	16f
.	8.B-	8.BB-	.	.	4f	8.dd	4BB-	4BB-	8.dd	8.f
.	16B-	16BB-	.	.	.	16dd	.	.	16dd	16f
=25	=25	=25	=25	=25	=25	=25	=25	=25	=25	=25
[1cc	8G	8E-	[1c	4cc	4g	2cc	[1G	[1G	2cc	2c
.	8G	8E-	.	.	.	.	.	.	.	.
.	8G	8E-	.	2.r	2.r	.	.	.	.	.
.	8G	8E-	.	.	.	.	.	.	.	.
.	8G	8E-	.	.	.	2ee-	.	.	2ee-	2e-
.	8G	8E-	.	.	.	.	.	.	.	.
.	8G	8E-	.	.	.	.	.	.	.	.
.	8G	8E-	.	.	.	.	.	.	.	.
=26	=26	=26	=26	=26	=26	=26	=26	=26	=26	=26
1cc_	8G	8E-	1c_	1r	1r	2ff#	1G_	1G_	2ff#	2f#
.	8G	8E-	.	.	.	.	.	.	.	.
.	8G	8E-	.	.	.	.	.	.	.	.
.	8G	8E-	.	.	.	.	.	.	.	.
.	8G	8E-	.	.	.	2gg	.	.	2gg	2g
.	8G	8E-	.	.	.	.	.	.	.	.
.	8G	8E-	.	.	.	.	.	.	.	.
.	8G	8E-	.	.	.	.	.	.	.	.
=27	=27	=27	=27	=27	=27	=27	=27	=27	=27	=27
1cc_	8G	8E-	1c_	1r	1r	2bb	1G_	1G_	2bb	2b
.	8G	8E-	.	.	.	.	.	.	.	.
.	8G	8E-	.	.	.	.	.	.	.	.
.	8G	8E-	.	.	.	.	.	.	.	.
.	8G	8E-	.	.	.	4ccc	.	.	4ccc	4cc
.	8G	8E-	.	.	.	.	.	.	.	.
.	8G	8E-	.	.	.	4ddd	.	.	4ddd	4dd
.	8G	8E-	.	.	.	.	.	.	.	.
=28	=28	=28	=28	=28	=28	=28	=28	=28	=28	=28
1cc_	8G	8E-	1c_	1r	1r	2fff	1G_	1G_	2fff	2ff
.	8G	8E-	.	.	.	.	.	.	.	.
.	8G	8E-	.	.	.	.	.	.	.	.
.	8G	8E-	.	.	.	.	.	.	.	.
.	8G	8E-	.	.	.	4eee-	.	.	4eee-	4ee-
.	8G	8E-	.	.	.	.	.	.	.	.
.	8G	8E-	.	.	.	4ddd	.	.	4ddd	4dd
.	8G	8E-	.	.	.	.	.	.	.	.
=29	=29	=29	=29	=29	=29	=29	=29	=29	=29	=29
2cc]	8G	8E	2c]	1r	1r	2ddd	1G]	1G]	2ddd	2dd
.	8G	8E	.	.	.	.	.	.	.	.
.	8G	8E	.	.	.	.	.	.	.	.
.	8G	8E	.	.	.	.	.	.	.	.
2r	8G	8E	2r	.	.	4ccc	.	.	4ccc	4cc
.	8G	8E	.	.	.	.	.	.	.	.
.	8G	8E	.	.	.	4bb-	.	.	4bb-	4b-
.	8G	8E	.	.	.	.	.	.	.	.
=30	=30	=30	=30	=30	=30	=30	=30	=30	=30	=30
1r	2F	[1F	1r	1ff	1ff	4aa	4F	4F	4aa	8.ff
.	.	.	.	.	.	.	.	.	.	16ff
.	.	.	.	.	.	2.r	2.r	2.r	2.r	8.ff
.	.	.	.	.	.	.	.	.	.	16ff
.	2A	.	.	.	.	.	.	.	.	8.ff
.	.	.	.	.	.	.	.	.	.	16ff
.	.	.	.	.	.	.	.	.	.	8.ff
.	.	.	.	.	.	.	.	.	.	16ff
=31	=31	=31	=31	=31	=31	=31	=31	=31	=31	=31
1r	2B	1F_	1r	1gg	2dd	1r	2d	2d	8.gg	8.ff
.	.	.	.	.	.	.	.	.	16gg	16ff
.	.	.	.	.	.	.	.	.	8.gg	8.ff
.	.	.	.	.	.	.	.	.	16gg	16ff
.	2c	.	.	.	2ee-	.	2e-	2e-	8.gg	8.ee-
.	.	.	.	.	.	.	.	.	16gg	16ee-
.	.	.	.	.	.	.	.	.	8.gg	8.ee-
.	.	.	.	.	.	.	.	.	16gg	16ee-
=32	=32	=32	=32	=32	=32	=32	=32	=32	=32	=32
1r	4A	1F]	1r	2ff	4cc	1r	4c	4c	8.ff	8.ee-
.	.	.	.	.	.	.	.	.	16ff	16ee-
.	4B-	.	.	.	4dd	.	4d	4d	8.ff	8.dd
.	.	.	.	.	.	.	.	.	16ff	16dd
.	4G	.	.	2ee-	4b-	.	4B-	4B-	8.ee-	8.dd
.	.	.	.	.	.	.	.	.	16ee-	16dd
.	4A	.	.	.	4cc	.	4c	4c	8.ee-	8.cc
.	.	.	.	.	.	.	.	.	16ee-	16cc
=33	=33	=33	=33	=33	=33	=33	=33	=33	=33	=33
2g	8B-	8B-	2G	8dd	1dd	1bb-	4BB-	4BB-	8dd	4b-
.	8B-	8B-	.	16b-	.	.	.	.	16b-	.
.	.	.	.	16dd	.	.	.	.	16dd	.
.	8B-	8B-	.	8ff	.	.	2.r	2.r	8ff	2f 2dd
.	8B-	8B-	.	8ff	.	.	.	.	8ff	.
2r	8B-	8B-	2r	8ff	.	.	.	.	8ff	.
.	8B-	8B-	.	16dd	.	.	.	.	16dd	.
.	.	.	.	16ff	.	.	.	.	16ff	.
.	8B-	8B-	.	8bb-	.	.	.	.	8bb-	4b- 4d
.	8B-	8B-	.	8bb-	.	.	.	.	8bb-	.
=34	=34	=34	=34	=34	=34	=34	=34	=34	=34	=34
1r	1A	1F	1r	8bb-	2ee-	2ccc	4F	4F	8bb-	1e- 1c
.	.	.	.	8aa	.	.	.	.	8aa	.
.	.	.	.	8gg	.	.	4A	4A	8gg	.
.	.	.	.	8ff	.	.	.	.	8ff	.
.	.	.	.	8ff	2a	2eee-	4c	4c	8ff	.
.	.	.	.	8ee-	.	.	.	.	8ee-	.
.	.	.	.	8dd	.	.	4f	4f	8dd	.
.	.	.	.	8cc	.	.	.	.	8cc	.
=35	=35	=35	=35	=35	=35	=35	=35	=35	=35	=35
2g	8B-	8B-	2G	8dd	2b-	2ddd	4BB-	4BB-	8dd	4B- 4d
.	8B-	8B-	.	16b-	.	.	.	.	16b-	.
.	.	.	.	16dd	.	.	.	.	16dd	.
.	8B-	8B-	.	8ff	.	.	2.r	2.r	8ff	2dd 2f
.	8B-	8B-	.	8ff	.	.	.	.	8ff	.
2r	8B-	8B-	2r	8ff	2dd	2bb-	.	.	8ff	.
.	8B-	8B-	.	16dd	.	.	.	.	16dd	.
.	.	.	.	16ff	.	.	.	.	16ff	.
.	8B-	8B-	.	8bb-	.	.	.	.	8bb-	4b- 4d
.	8B-	8B-	.	8bb-	.	.	.	.	8bb-	.
=36	=36	=36	=36	=36	=36	=36	=36	=36	=36	=36
1r	1A	1F	1r	8bb-	2ee-	2ccc	4F	4F	8bb-	1c 1e-
.	.	.	.	8aa	.	.	.	.	8aa	.
.	.	.	.	8gg	.	.	4A	4A	8gg	.
.	.	.	.	8ff	.	.	.	.	8ff	.
.	.	.	.	8ff	2cc	2eee-	4c	4c	8ff	.
.	.	.	.	8ee-	.	.	.	.	8ee-	.
.	.	.	.	8dd	.	.	4f	4f	8dd	.
.	.	.	.	8cc	.	.	.	.	8cc	.
=37	=37	=37	=37	=37	=37	=37	=37	=37	=37	=37
2g	8B-	8B-	2G	4dd	1b-	4ddd	4BB-	4BB-	8dd	4B- 4d
.	8B-	8B-	.	.	.	.	.	.	16b-	.
.	.	.	.	.	.	.	.	.	16dd	.
.	8B-	8B-	.	4.r	.	2.r	4.r	4.r	8ff	4.dd 4.f
.	8B-	8B-	.	.	.	.	.	.	8ff	.
2r	8B-	8B-	2r	.	.	.	.	.	8ff	.
.	8B-	8BB-	.	8ff	.	.	8BB-	8BB-	8ff	8d
.	8c	8C	.	8ee-	.	.	8C	8C	8ee-	8e-
.	8d	8D	.	8dd	.	.	8D	8D	8dd	8f
=38	=38	=38	=38	=38	=38	=38	=38	=38	=38	=38
[1cc	8e-	8E-	[1c	2cc	[1cc	1cc	[1E-	[1E-	8cc	1g
.	8e-	8E-	.	.	.	.	.	.	16g	.
.	.	.	.	.	.	.	.	.	16cc	.
.	8e-	8E-	.	.	.	.	.	.	8ee-	.
.	8e-	8E-	.	.	.	.	.	.	8ee-	.
.	8e-	8E-	.	2ee-	.	.	.	.	8ee-	.
.	8e-	8E-	.	.	.	.	.	.	16cc	.
.	.	.	.	.	.	.	.	.	16ee-	.
.	8e-	8E-	.	.	.	.	.	.	8gg	.
.	8e-	8E-	.	.	.	.	.	.	8gg	.
=39	=39	=39	=39	=39	=39	=39	=39	=39	=39	=39
1cc]	8e-	8E-	1c]	1gg	1cc_	2gg	1E-_	1E-_	8gg	4g 4cc
.	8e-	8E-	.	.	.	.	.	.	16ee-	.
.	.	.	.	.	.	.	.	.	16gg	.
.	8e-	8E-	.	.	.	.	.	.	8ccc	2cc 2g
.	8e-	8E-	.	.	.	.	.	.	8ccc	.
.	8e-	8E-	.	.	.	2ccc	.	.	8ccc	.
.	8e-	8E-	.	.	.	.	.	.	16gg	.
.	.	.	.	.	.	.	.	.	16ccc	.
.	8e-	8E-	.	.	.	.	.	.	8eee-	4cc 4g
.	8e-	8E-	.	.	.	.	.	.	8eee-	.
=40	=40	=40	=40	=40	=40	=40	=40	=40	=40	=40
2cc	8e-	8E-	2c	2.ccc	1cc]	2.eee-	1E-]	1E-]	8eee-	4cc 4g
.	8e-	8E-	.	.	.	.	.	.	16ccc	.
.	.	.	.	.	.	.	.	.	16ddd	.
.	8e-	8E-	.	.	.	.	.	.	8eee-	2cc 2g
.	8e-	8E-	.	.	.	.	.	.	8eee-	.
2r	8e-	8E-	2r	.	.	.	.	.	8eee-	.
.	8e-	8E-	.	.	.	.	.	.	8ccc	.
.	8e-	8E-	.	4ee-	.	4ccc	.	.	8eee-	4e- 4cc
.	8e-	8E-	.	.	.	.	.	.	8ccc	.
=41	=41	=41	=41	=41	=41	=41	=41	=41	=41	=41
1r	4f	4F	1r	4dd	4b-	4ddd	4F	4F	8ddd	4b- 4d
.	.	.	.	.	.	.	.	.	16ddd	.
.	.	.	.	.	.	.	.	.	16eee-	.
.	2.r	2.r	.	2.r	2.r	2.r	2.r	2.r	8fff	2.r
.	.	.	.	.	.	.	.	.	8eee-	.
.	.	.	.	.	.	.	.	.	8ddd	.
.	.	.	.	.	.	.	.	.	8ccc	.
.	.	.	.	.	.	.	.	.	8bb-	.
.	.	.	.	.	.	.	.	.	8aa	.
=42	=42	=42	=42	=42	=42	=42	=42	=42	=42	=42
1r	1r	1r	1r	1r	1r	1r	1r	1r	8gg	1r
.	.	.	.	.	.	.	.	.	8ff	.
.	.	.	.	.	.	.	.	.	8ee-	.
.	.	.	.	.	.	.	.	.	8dd	.
.	.	.	.	.	.	.	.	.	8cc	.
.	.	.	.	.	.	.	.	.	8b-	.
.	.	.	.	.	.	.	.	.	8a	.
.	.	.	.	.	.	.	.	.	8g	.
=43	=43	=43	=43	=43	=43	=43	=43	=43	=43	=43
1r	1r	1r	1r	1r	1r	1r	1r	1r	8f	1r
.	.	.	.	.	.	.	.	.	8r	.
.	.	.	.	.	.	.	.	.	8e	.
.	.	.	.	.	.	.	.	.	8r	.
.	.	.	.	.	.	.	.	.	8e-	.
.	.	.	.	.	.	.	.	.	8r	.
.	.	.	.	.	.	.	.	.	8d	.
.	.	.	.	.	.	.	.	.	8r	.
=44	=44	=44	=44	=44	=44	=44	=44	=44	=44	=44
1r	1F	1F	1r	1r	1r	1r	1r	1r	1c	2B-
.	.	.	.	.	.	.	.	.	.	2A
=45	=45	=45	=45	=45	=45	=45	=45	=45	=45	=45
1r	4B-	4B-	1r	1r	1r	1r	1r	1r	4B-	8B-
.	.	.	.	.	.	.	.	.	.	8f
.	2.r	2.r	.	.	.	.	.	.	4r	8d
.	.	.	.	.	.	.	.	.	.	8f
.	.	.	.	.	.	.	.	.	8b-	8B-
.	.	.	.	.	.	.	.	.	8r	8f
.	.	.	.	.	.	.	.	.	8b-	8d
.	.	.	.	.	.	.	.	.	8r	8f
=46	=46	=46	=46	=46	=46	=46	=46	=46	=46	=46
1r	1r	1r	1r	1r	1r	1r	1r	1r	8cc	8A
.	.	.	.	.	.	.	.	.	4.r	8f
.	.	.	.	.	.	.	.	.	.	8c
.	.	.	.	.	.	.	.	.	.	8f
.	.	.	.	.	.	.	.	.	8ff	8A
.	.	.	.	.	.	.	.	.	8r	8f
.	.	.	.	.	.	.	.	.	8ff	8c
.	.	.	.	.	.	.	.	.	8r	8f
=47	=47	=47	=47	=47	=47	=47	=47	=47	=47	=47
1r	1r	1r	1r	1r	1r	1r	1r	1r	4ee-	8B-
.	.	.	.	.	.	.	.	.	.	8f
.	.	.	.	.	.	.	.	.	4dd	8d
.	.	.	.	.	.	.	.	.	.	8f
.	.	.	.	.	.	.	.	.	8b-	8B-
.	.	.	.	.	.	.	.	.	8r	8f
.	.	.	.	.	.	.	.	.	8b-	8d
.	.	.	.	.	.	.	.	.	8r	8f
=48	=48	=48	=48	=48	=48	=48	=48	=48	=48	=48
1r	1r	1r	1r	1r	1r	1r	1r	1r	8cc	8A
.	.	.	.	.	.	.	.	.	4.r	8f
.	.	.	.	.	.	.	.	.	.	8c
.	.	.	.	.	.	.	.	.	.	8f
.	.	.	.	.	.	.	.	.	8ff	8A
.	.	.	.	.	.	.	.	.	8r	8f
.	.	.	.	.	.	.	.	.	8ff	8c
.	.	.	.	.	.	.	.	.	8r	8f
=49	=49	=49	=49	=49	=49	=49	=49	=49	=49	=49
1r	1r	1r	1r	1r	1r	1r	1r	1r	4ee-	8B-
.	.	.	.	.	.	.	.	.	.	8f
.	.	.	.	.	.	.	.	.	4dd	8d
.	.	.	.	.	.	.	.	.	.	8f
.	.	.	.	.	.	.	.	.	8bb-	8d
.	.	.	.	.	.	.	.	.	8r	8b-
.	.	.	.	.	.	.	.	.	8bb-	8f
.	.	.	.	.	.	.	.	.	8r	8b-
=50	=50	=50	=50	=50	=50	=50	=50	=50	=50	=50
1r	1r	1r	1r	1r	1r	1r	1r	1r	16aa	4e-
.	.	.	.	.	.	.	.	.	16gg	.
.	.	.	.	.	.	.	.	.	8r	.
.	.	.	.	.	.	.	.	.	16ff	2.r
.	.	.	.	.	.	.	.	.	16ee-	.
.	.	.	.	.	.	.	.	.	8r	.
.	.	.	.	.	.	.	.	.	16dd	.
.	.	.	.	.	.	.	.	.	16cc	.
.	.	.	.	.	.	.	.	.	8r	.
.	.	.	.	.	.	.	.	.	16ee-	.
.	.	.	.	.	.	.	.	.	16cc	.
.	.	.	.	.	.	.	.	.	8r	.
=51	=51	=51	=51	=51	=51	=51	=51	=51	=51	=51
1r	4F	4F	1r	1r	1r	1r	1r	1r	[3..b-	8d
.	.	.	.	.	.	.	.	.	.	8f
.	2.r	2.r	.	.	.	.	.	.	.	8d
.	.	.	.	.	.	.	.	.	.	8f
.	.	.	.	.	.	.	.	.	.	8d
.	.	.	.	.	.	.	.	.	24b-]	.
.	.	.	.	.	.	.	.	.	8dd	8f
.	.	.	.	.	.	.	.	.	8cc	8e-
.	.	.	.	.	.	.	.	.	8a	8c
=52	=52	=52	=52	=52	=52	=52	=52	=52	=52	=52
1r	4B-	4B-	1r	8.ff	1r	1r	1r	1r	4b-	8B-
.	.	.	.	.	.	.	.	.	.	8f
.	.	.	.	16ff	.	.	.	.	.	.
.	2.r	2.r	.	8.ff	.	.	.	.	4r	8d
.	.	.	.	.	.	.	.	.	.	8f
.	.	.	.	16ff	.	.	.	.	.	.
.	.	.	.	8.ff	.	.	.	.	8b-	8B-
.	.	.	.	.	.	.	.	.	8r	8f
.	.	.	.	16ff	.	.	.	.	.	.
.	.	.	.	8.ff	.	.	.	.	8b-	8d
.	.	.	.	.	.	.	.	.	8r	8f
.	.	.	.	16ff	.	.	.	.	.	.
=53	=53	=53	=53	=53	=53	=53	=53	=53	=53	=53
1r	4F	4F	1r	8.ff	1r	1r	1r	1r	8cc	8A
.	.	.	.	.	.	.	.	.	4.r	8f
.	.	.	.	16ff	.	.	.	.	.	.
.	2.r	2.r	.	8.ff	.	.	.	.	.	8c
.	.	.	.	.	.	.	.	.	.	8f
.	.	.	.	16ff	.	.	.	.	.	.
.	.	.	.	8.ff	.	.	.	.	8ff	8A
.	.	.	.	.	.	.	.	.	8r	8f
.	.	.	.	16ff	.	.	.	.	.	.
.	.	.	.	8.ff	.	.	.	.	8ff	8c
.	.	.	.	.	.	.	.	.	8r	8f
.	.	.	.	16ff	.	.	.	.	.	.
=54	=54	=54	=54	=54	=54	=54	=54	=54	=54	=54
1r	4B-	4B-	1r	8.ff	1r	1r	1r	1r	4ee-	8B-
.	.	.	.	.	.	.	.	.	.	8f
.	.	.	.	16ff	.	.	.	.	.	.
.	2.r	2.r	.	8.ff	.	.	.	.	4dd	8d
.	.	.	.	.	.	.	.	.	.	8f
.	.	.	.	16ff	.	.	.	.	.	.
.	.	.	.	8.ff	.	.	.	.	8b-	8B-
.	.	.	.	.	.	.	.	.	8r	8f
.	.	.	.	16ff	.	.	.	.	.	.
.	.	.	.	8.ff	.	.	.	.	8b-	8d
.	.	.	.	.	.	.	.	.	8r	8f
.	.	.	.	16ff	.	.	.	.	.	.
=55	=55	=55	=55	=55	=55	=55	=55	=55	=55	=55
1r	4F	4F	1r	8.ff	1r	1r	1r	1r	8cc	8A
.	.	.	.	.	.	.	.	.	4.r	8f
.	.	.	.	16ff	.	.	.	.	.	.
.	2.r	2.r	.	8.ff	.	.	.	.	.	8c
.	.	.	.	.	.	.	.	.	.	8f
.	.	.	.	16ff	.	.	.	.	.	.
.	.	.	.	8.ff	.	.	.	.	8ff	8A
.	.	.	.	.	.	.	.	.	8r	8f
.	.	.	.	16ff	.	.	.	.	.	.
.	.	.	.	8.ff	.	.	.	.	8ff	8c
.	.	.	.	.	.	.	.	.	8r	8f
.	.	.	.	16ff	.	.	.	.	.	.
=56	=56	=56	=56	=56	=56	=56	=56	=56	=56	=56
1r	4B-	4B-	1r	8.ff	1r	1r	1r	1r	4ee-	8B-
.	.	.	.	.	.	.	.	.	.	8f
.	.	.	.	16ff	.	.	.	.	.	.
.	2.r	2.r	.	8.ff	.	.	.	.	4dd	8d
.	.	.	.	.	.	.	.	.	.	8f
.	.	.	.	16ff	.	.	.	.	.	.
.	.	.	.	8.ff	.	.	.	.	8bb-	8d
.	.	.	.	.	.	.	.	.	8r	8b-
.	.	.	.	16ff	.	.	.	.	.	.
.	.	.	.	8.ff	.	.	.	.	8bb-	8f
.	.	.	.	.	.	.	.	.	8r	8b-
.	.	.	.	16ff	.	.	.	.	.	.
=57	=57	=57	=57	=57	=57	=57	=57	=57	=57	=57
1r	4e-	4E-	1r	4gg	1r	1r	1r	1r	16aa	4e-
.	.	.	.	.	.	.	.	.	16gg	.
.	.	.	.	.	.	.	.	.	8r	.
.	2.r	2.r	.	2.r	.	.	.	.	16ff	2.r
.	.	.	.	.	.	.	.	.	16ee-	.
.	.	.	.	.	.	.	.	.	8r	.
.	.	.	.	.	.	.	.	.	16dd	.
.	.	.	.	.	.	.	.	.	16cc	.
.	.	.	.	.	.	.	.	.	8r	.
.	.	.	.	.	.	.	.	.	16ee-	.
.	.	.	.	.	.	.	.	.	16cc	.
.	.	.	.	.	.	.	.	.	8r	.
=58	=58	=58	=58	=58	=58	=58	=58	=58	=58	=58
1r	4F	4F	1r	1r	1r	1r	1r	1r	[3..b-	8d
.	.	.	.	.	.	.	.	.	.	8f
.	2.r	2.r	.	.	.	.	.	.	.	8d
.	.	.	.	.	.	.	.	.	.	8f
.	.	.	.	.	.	.	.	.	.	8d
.	.	.	.	.	.	.	.	.	24b-]	.
.	.	.	.	.	.	.	.	.	8dd	8f
.	.	.	.	.	.	.	.	.	8cc	8e-
.	.	.	.	.	.	.	.	.	8a	8c
=59	=59	=59	=59	=59	=59	=59	=59	=59	=59	=59
1r	4b-	4B-	1r	4bb-	4b-	[1bb-	4B-	4B-	8.bb- 8.b-	8.b-
.	.	.	.	.	.	.	.	.	16bb- 16b-	16bb- 16b-
.	4g	4G	.	4gg	4g	.	4G	4G	8.b- 8.bb-	8.b- 8.bb-
.	.	.	.	.	.	.	.	.	16bb- 16b-	16bb- 16b-
.	4e	4E	.	4ee	4e	.	4E	4E	8.bb- 8.b-	8.bb- 8.b-
.	.	.	.	.	.	.	.	.	16bb- 16b-	16b- 16bb-
.	4f	4F	.	4ff	4f	.	4F	4F	8.bb- 8.b-	8.bb- 8.b-
.	.	.	.	.	.	.	.	.	16bb- 16b-	16b- 16bb-
=60	=60	=60	=60	=60	=60	=60	=60	=60	=60	=60
1r	4a-	4A-	1r	4aa-	4a-	1bb-]	4A-	4A-	8.b- 8.bb-	8.bb- 8.b-
.	.	.	.	.	.	.	.	.	16bb- 16b-	16bb- 16b-
.	4f	4F	.	4ff	4f	.	4F	4F	8.bb- 8.b-	8.b- 8.bb-
.	.	.	.	.	.	.	.	.	16bb- 16b-	16bb- 16b-
.	4d	4D	.	4dd	4d	.	4D	4D	8.bb- 8.b-	8.bb- 8.b-
.	.	.	.	.	.	.	.	.	16bb- 16b-	16bb- 16b-
.	4e-	4E-	.	4ee-	4e-	.	4E-	4E-	8.bb- 8.b-	8.bb- 8.b-
.	.	.	.	.	.	.	.	.	16b- 16bb-	16bb- 16b-
=61	=61	=61	=61	=61	=61	=61	=61	=61	=61	=61
1r	1g	8.e-	1r	4gg	1b-	4gg	1g	8.e-	4gg	4gg
.	.	16e-	.	.	.	.	.	16e-	.	.
.	.	8.e-	.	4ee-	.	4ee-	.	8.e-	4ee-	4ee-
.	.	16e-	.	.	.	.	.	16e-	.	.
.	.	8.e-	.	4b	.	4b	.	8.e-	4b	4b
.	.	16e-	.	.	.	.	.	16e-	.	.
.	.	8.e-	.	4cc	.	4cc	.	8.e-	4cc	4cc
.	.	16e-	.	.	.	.	.	16e-	.	.
=62	=62	=62	=62	=62	=62	=62	=62	=62	=62	=62
1r	2a	2e-	1r	3ff	2cc	4.a	2A	2A	3ff	3ff
.	.	.	.	12gg	.	.	.	.	12gg	12gg
.	.	.	.	.	.	8cc	.	.	.	.
.	.	.	.	12aa	.	.	.	.	12aa	12aa
.	4b-	4d	.	12bb-	4b-	4b-	4B-	4B-	12bb-	12bb-
.	.	.	.	12aa	.	.	.	.	12aa	12aa
.	.	.	.	12gg	.	.	.	.	12gg	12gg
.	4f	4D	.	12ff	4r	12ff	4f	4f	12ff	12ff
.	.	.	.	12ee-	.	12ee-	.	.	12ee-	12ee-
.	.	.	.	12dd	.	12dd	.	.	12dd	12dd
=63	=63	=63	=63	=63	=63	=63	=63	=63	=63	=63
1r	4g	2E-	1r	4cc	4r	4cc	4g	4g	12cc	12cc
.	.	.	.	.	.	.	.	.	12gg	12gg
.	.	.	.	.	.	.	.	.	12ff	12ff
.	12g	.	.	12gg	12ee-	12gg	12g	12g	12ee-	12ee-
.	12f	.	.	12ff	12dd	12ff	12f	12f	12dd	12dd
.	12e-	.	.	12ee-	12cc	12ee-	12e-	12e-	12cc	12cc
.	4d	2F	.	4dd	4b-	4dd	4d	4d	4b-	4b-
.	4c	.	.	4cc	4a	4cc	4c	4c	4a	4a
=64	=64	=64	=64	=64	=64	=64	=64	=64	=64	=64
1r	12b-	12B-	1r	4b-	4b-	4b-	12B-	12B-	12b-	12b-
.	12a	12A	.	.	.	.	12A	12A	12a	12a
.	12g	12G	.	.	.	.	12G	12G	12g	12g
.	12f	12F	.	4r	4r	4r	12F	12F	12f	12f
.	12e-	12E-	.	.	.	.	12E-	12E-	12e-	12e-
.	12d	12D	.	.	.	.	12D	12D	12d	12d
.	12dd	12d	.	4dd	4dd	4dd	12d	12d	12dd	12dd
.	12cc	12c	.	.	.	.	12c	12c	12cc	12cc
.	12b-	12B-	.	.	.	.	12B-	12B-	12b-	12b-
.	12a	12A	.	4r	4r	4r	12A	12A	12a	12a
.	12g	12G	.	.	.	.	12G	12G	12g	12g
.	12f	12F	.	.	.	.	12F	12F	12f	12f
=65	=65	=65	=65	=65	=65	=65	=65	=65	=65	=65
1r	12ff	12f	1r	4ff	4ff	4ff	12f	12f	12ff	12ff
.	12ee-	12e-	.	.	.	.	12e-	12e-	12ee-	12ee-
.	12dd	12d	.	.	.	.	12d	12d	12dd	12dd
.	12ee-	12e-	.	2.r	2.r	2.r	12e-	12e-	12ee-	12ee-
.	12dd	12d	.	.	.	.	12d	12d	12dd	12dd
.	12cc	12c	.	.	.	.	12c	12c	12cc	12cc
.	12dd	12d	.	.	.	.	12d	12d	12dd	12dd
.	12cc	12c	.	.	.	.	12c	12c	12cc	12cc
.	12b-	12B-	.	.	.	.	12B-	12B-	12b-	12b-
.	12cc	12c	.	.	.	.	12c	12c	12cc	12cc
.	12b-	12B-	.	.	.	.	12B-	12B-	12b-	12b-
.	12a	12A	.	.	.	.	12A	12A	12a	12a
=66	=66	=66	=66	=66	=66	=66	=66	=66	=66	=66
1r	4b-	4B-	1r	4r	4r	4r	4B-	4B-	4b-	4b-
.	4e-	4E-	.	4gg	4ee-	4ee-	4E-	4E-	4ee- 4gg	4ee- 4gg
.	4f	4F	.	4ff	4dd	4dd	4F	4F	4ff 4dd	4dd 4ff
.	4f	4F	.	4aa	4cc	4cc	4F	4F	4cc 4aa	4cc 4aa
=67	=67	=67	=67	=67	=67	=67	=67	=67	=67	=67
2r	4B-	4BB-	2r	4bb-	4dd	4bb-	4BB-	4BB-	4bb- 4b-	4b- 4bb-
.	4r	4r	.	4r	4r	4r	4r	4r	4r	4r
4g	4B-	4BB-	4G	4bb-	4dd	4bb-	4BB-	4BB-	4bb- 4b-	4B- 4f 4dd
4g	4B-	4BB-	4G	4bb-	4dd	4bb-	4BB-	4BB-	4bb- 4b-	4dd 4B- 4f
=68	=68	=68	=68	=68	=68	=68	=68	=68	=68	=68
4g	4B-	4BB-	4G	4bb-	4dd	4bb-	4BB-	4BB-	4bb- 4b-	4dd 4B- 4f
2.r	2.r	2.r	2.r	2.r	2.r	2.r	2.r	2.r	2.r	2.r
=69	=69	=69	=69	=69	=69	=69	=69	=69	=69	=69
1cc	8g	8G	1c	2gg	2b	2gg	[1G	[1G	2gg	2b
.	8g	8G	.	.	.	.	.	.	.	.
.	8g	8G	.	.	.	.	.	.	.	.
.	8g	8G	.	.	.	.	.	.	.	.
.	8g	8G	.	2aa-	2cc	2aa-	.	.	2aa-	2cc
.	8g	8G	.	.	.	.	.	.	.	.
.	8g	8G	.	.	.	.	.	.	.	.
.	8g	8G	.	.	.	.	.	.	.	.
=70	=70	=70	=70	=70	=70	=70	=70	=70	=70	=70
2.cc	8f	8G	2.c	2ff	2dd	2bb	1G_	1G_	2bb	2dd
.	8f	8G	.	.	.	.	.	.	.	.
.	8f	8G	.	.	.	.	.	.	.	.
.	8f	8G	.	.	.	.	.	.	.	.
.	8e-	8G	.	4cc	2ee-	4ccc	.	.	4ccc	4ee-
.	8e-	8G	.	.	.	.	.	.	.	.
4cc	8c	8G	4c	4gg	.	4gg	.	.	8.gg	8.ee-
.	8c	8G	.	.	.	.	.	.	.	.
.	.	.	.	.	.	.	.	.	16gg	16ee-
=71	=71	=71	=71	=71	=71	=71	=71	=71	=71	=71
4cc	8g	8G	4c	4ff	4dd	4ff	1G]	1G]	8.ff	8.dd
.	8g	8G	.	.	.	.	.	.	.	.
.	.	.	.	.	.	.	.	.	16ff	16dd
4cc	8g	8G	4c	4ee-	4cc	4ee-	.	.	8.ee-	8.cc
.	8g	8G	.	.	.	.	.	.	.	.
.	.	.	.	.	.	.	.	.	16ee-	16cc
4cc	8g	8G	4c	4dd	4b	4dd	.	.	8.dd	8.b
.	8g	8G	.	.	.	.	.	.	.	.
.	.	.	.	.	.	.	.	.	16dd	16b
4cc	8g	8G	4c	4cc	4a	4cc	.	.	8.cc	8.a
.	8g	8G	.	.	.	.	.	.	.	.
.	.	.	.	.	.	.	.	.	16cc	16a
=72	=72	=72	=72	=72	=72	=72	=72	=72	=72	=72
4cc	4g	4G	4c	4gg	4g	4gg	4G	4G	4b	4g
2.r	2.r	2.r	2.r	2.r	2.r	2.r	2.r	2.r	2.r	2.r
=73	=73	=73	=73	=73	=73	=73	=73	=73	=73	=73
1r	4e-	4E-	1r	1r	1r	1r	1r	1r	2r	8e-
.	.	.	.	.	.	.	.	.	.	8b-
.	2.r	2.r	.	.	.	.	.	.	.	8g
.	.	.	.	.	.	.	.	.	.	8b-
.	.	.	.	.	.	.	.	.	8ee-	8e-
.	.	.	.	.	.	.	.	.	8r	8b-
.	.	.	.	.	.	.	.	.	8ee-	8g
.	.	.	.	.	.	.	.	.	8r	8b-
=74	=74	=74	=74	=74	=74	=74	=74	=74	=74	=74
1r	4B-	1r	1r	1r	1r	1r	1r	1r	8ff	8d
.	.	.	.	.	.	.	.	.	4.r	8b-
.	2.r	.	.	.	.	.	.	.	.	8f
.	.	.	.	.	.	.	.	.	.	8b-
.	.	.	.	.	.	.	.	.	8bb-	8d
.	.	.	.	.	.	.	.	.	8r	8b-
.	.	.	.	.	.	.	.	.	8bb-	8f
.	.	.	.	.	.	.	.	.	8r	8b-
=75	=75	=75	=75	=75	=75	=75	=75	=75	=75	=75
1r	4E-	1r	1r	1r	1r	1r	1r	1r	4aa-	8e-
.	.	.	.	.	.	.	.	.	.	8b-
.	2.r	.	.	.	.	.	.	.	4gg	8g
.	.	.	.	.	.	.	.	.	.	8b-
.	.	.	.	.	.	.	.	.	8ee-	8e-
.	.	.	.	.	.	.	.	.	8r	8b-
.	.	.	.	.	.	.	.	.	8ee-	8g
.	.	.	.	.	.	.	.	.	8r	8b-
=76	=76	=76	=76	=76	=76	=76	=76	=76	=76	=76
1r	4B-	1r	1r	1r	1r	1r	1r	1r	8ff	8d
.	.	.	.	.	.	.	.	.	4.r	8b-
.	2.r	.	.	.	.	.	.	.	.	8f
.	.	.	.	.	.	.	.	.	.	8b-
.	.	.	.	.	.	.	.	.	8bb-	8d
.	.	.	.	.	.	.	.	.	8r	8b-
.	.	.	.	.	.	.	.	.	8bb-	8f
.	.	.	.	.	.	.	.	.	8r	8b-
=77	=77	=77	=77	=77	=77	=77	=77	=77	=77	=77
1r	2e-	1r	1r	1r	1r	1r	1r	1r	4aa-	8e-
.	.	.	.	.	.	.	.	.	.	8b-
.	.	.	.	.	.	.	.	.	4gg	8g
.	.	.	.	.	.	.	.	.	.	8b-
.	2d-	.	.	.	.	.	.	.	8bb-	8d-
.	.	.	.	.	.	.	.	.	8r	8b-
.	.	.	.	.	.	.	.	.	8bb-	8g
.	.	.	.	.	.	.	.	.	8r	8b-
=78	=78	=78	=78	=78	=78	=78	=78	=78	=78	=78
1r	2c	1r	1r	1r	1r	1r	1r	1r	4ff	8c
.	.	.	.	.	.	.	.	.	.	8b-
.	.	.	.	.	.	.	.	.	4ee	8g
.	.	.	.	.	.	.	.	.	.	8b-
.	2e	.	.	.	.	.	.	.	8ccc	8e
.	.	.	.	.	.	.	.	.	8r	8cc
.	.	.	.	.	.	.	.	.	8ccc	8g
.	.	.	.	.	.	.	.	.	8r	8cc
=79	=79	=79	=79	=79	=79	=79	=79	=79	=79	=79
1r	4f	4F	1r	8.ccc	1r	8.ccc	1r	1r	4bb-	8f
.	.	.	.	.	.	.	.	.	.	8cc
.	.	.	.	16ccc	.	16ccc	.	.	.	.
.	2.r	2.r	.	8.ccc	.	8.ccc	.	.	4aa-	8a-
.	.	.	.	.	.	.	.	.	.	8cc
.	.	.	.	16ccc	.	16ccc	.	.	.	.
.	.	.	.	8.ccc	.	8.ccc	.	.	8ff	8f
.	.	.	.	.	.	.	.	.	8r	8cc
.	.	.	.	16ccc	.	16ccc	.	.	.	.
.	.	.	.	8.ccc	.	8.ccc	.	.	8ff	8a-
.	.	.	.	.	.	.	.	.	8r	8cc
.	.	.	.	16ccc	.	16ccc	.	.	.	.
=80	=80	=80	=80	=80	=80	=80	=80	=80	=80	=80
1r	4e	4C	1r	8.ccc	1r	8.ccc	1r	1r	8gg	8e
.	.	.	.	.	.	.	.	.	4.r	8cc
.	.	.	.	16ccc	.	16ccc	.	.	.	.
.	2.r	2.r	.	8.ccc	.	8.ccc	.	.	.	8g
.	.	.	.	.	.	.	.	.	.	8cc
.	.	.	.	16ccc	.	16ccc	.	.	.	.
.	.	.	.	8.ccc	.	8.ccc	.	.	8ccc	8e
.	.	.	.	.	.	.	.	.	8r	8cc
.	.	.	.	16ccc	.	16ccc	.	.	.	.
.	.	.	.	8.ccc	.	8.ccc	.	.	8ccc	8g
.	.	.	.	.	.	.	.	.	8r	8cc
.	.	.	.	16ccc	.	16ccc	.	.	.	.
=81	=81	=81	=81	=81	=81	=81	=81	=81	=81	=81
1r	4f	4F	1r	8.ccc	1r	8.ccc	1r	1r	4bb-	8f
.	.	.	.	.	.	.	.	.	.	8cc
.	.	.	.	16ccc	.	16ccc	.	.	.	.
.	2.r	2.r	.	8.ccc	.	8.ccc	.	.	4aa-	8a-
.	.	.	.	.	.	.	.	.	.	8cc
.	.	.	.	16ccc	.	16ccc	.	.	.	.
.	.	.	.	8.ccc	.	8.ccc	.	.	8ff	8f
.	.	.	.	.	.	.	.	.	8r	8cc
.	.	.	.	16ccc	.	16ccc	.	.	.	.
.	.	.	.	8.ccc	.	8.ccc	.	.	8ff	8a-
.	.	.	.	.	.	.	.	.	8r	8cc
.	.	.	.	16ccc	.	16ccc	.	.	.	.
=82	=82	=82	=82	=82	=82	=82	=82	=82	=82	=82
1r	4e	4C	1r	8.ccc	1r	8.ccc	1r	1r	8gg	8e
.	.	.	.	.	.	.	.	.	4.r	8cc
.	.	.	.	16ccc	.	16ccc	.	.	.	.
.	2.r	2.r	.	8.ccc	.	8.ccc	.	.	.	8g
.	.	.	.	.	.	.	.	.	.	8cc
.	.	.	.	16ccc	.	16ccc	.	.	.	.
.	.	.	.	8.ccc	.	8.ccc	.	.	8ccc	8e
.	.	.	.	.	.	.	.	.	8r	8cc
.	.	.	.	16ccc	.	16ccc	.	.	.	.
.	.	.	.	8.ccc	.	8.ccc	.	.	8ccc	8g
.	.	.	.	.	.	.	.	.	8r	8cc
.	.	.	.	16ccc	.	16ccc	.	.	.	.
=83	=83	=83	=83	=83	=83	=83	=83	=83	=83	=83
1r	2f	2F	1r	4aa-	1cc	4aa-	2F	2F	8aa-	8f
.	.	.	.	.	.	.	.	.	16ff	16ff
.	.	.	.	.	.	.	.	.	16gg	16gg
.	.	.	.	2.r	.	2.r	.	.	8aa-	8aa-
.	.	.	.	.	.	.	.	.	8gg	8gg
.	2a-	2A-	.	.	.	.	2A-	2A-	8ff	8ff
.	.	.	.	.	.	.	.	.	8cc	8cc
.	.	.	.	.	.	.	.	.	8ff	8ff
.	.	.	.	.	.	.	.	.	8ee-	8ee-
=84	=84	=84	=84	=84	=84	=84	=84	=84	=84	=84
1r	2b	2B	1r	2dd	1g	1r	2B	2B	8dd	8dd
.	.	.	.	.	.	.	.	.	8g	8g
.	.	.	.	.	.	.	.	.	8gg	8gg
.	.	.	.	.	.	.	.	.	8ff	8ff
.	2cc	2c	.	2ee-	.	.	2c	2c	8ee-	8ee-
.	.	.	.	.	.	.	.	.	8ff	8ff
.	.	.	.	.	.	.	.	.	8ee-	8ee-
.	.	.	.	.	.	.	.	.	8dd	8dd
=85	=85	=85	=85	=85	=85	=85	=85	=85	=85	=85
1r	2e-	2E-	1r	2gg-	2g-	1r	2E-	2E-	8cc	8cc
.	.	.	.	.	.	.	.	.	16ee-	16ee-
.	.	.	.	.	.	.	.	.	16ff	16ff
.	.	.	.	.	.	.	.	.	8gg-	8gg-
.	.	.	.	.	.	.	.	.	8ff	8ff
.	2g-	2G-	.	2ee-	2b-	.	2G-	2G-	8ee-	8ee-
.	.	.	.	.	.	.	.	.	8b-	8b-
.	.	.	.	.	.	.	.	.	8ee-	8ee-
.	.	.	.	.	.	.	.	.	8dd-	8dd-
=86	=86	=86	=86	=86	=86	=86	=86	=86	=86	=86
1r	2a	2A	1r	2cc	2f	1r	2A	2A	8cc	8cc
.	.	.	.	.	.	.	.	.	8f	8f
.	.	.	.	.	.	.	.	.	8ff	8ff
.	.	.	.	.	.	.	.	.	8ee-	8ee-
.	2b-	2B-	.	4dd-	2r	.	2B-	2B-	8dd-	8dd-
.	.	.	.	.	.	.	.	.	8ee-	8ee-
.	.	.	.	4r	.	.	.	.	8dd-	8dd-
.	.	.	.	.	.	.	.	.	8cc	8cc
=87	=87	=87	=87	=87	=87	=87	=87	=87	=87	=87
1r	2B-	1r	1r	1r	1r	1r	1r	1r	8b-	2d-
.	.	.	.	.	.	.	.	.	16bb-	.
.	.	.	.	.	.	.	.	.	16ccc	.
.	.	.	.	.	.	.	.	.	8ddd-	.
.	.	.	.	.	.	.	.	.	8ccc	.
.	2d-	.	.	.	.	.	.	.	8bb-	2f
.	.	.	.	.	.	.	.	.	8ff	.
.	.	.	.	.	.	.	.	.	8bb-	.
.	.	.	.	.	.	.	.	.	8aa-	.
=88	=88	=88	=88	=88	=88	=88	=88	=88	=88	=88
1r	2e	1r	1r	1r	1r	1r	1r	1r	8gg	2g
.	.	.	.	.	.	.	.	.	8cc	.
.	.	.	.	.	.	.	.	.	8ccc	.
.	.	.	.	.	.	.	.	.	8bb-	.
.	4.f	.	.	.	.	.	.	.	8aa-	4a-
.	.	.	.	.	.	.	.	.	8bb-	.
.	.	.	.	.	.	.	.	.	8aa-	4r
.	8g	.	.	.	.	.	.	.	8gg	.
=89	=89	=89	=89	=89	=89	=89	=89	=89	=89	=89
1r	4a-	1r	1r	1r	1r	1r	1r	1r	8ff	8r
.	.	.	.	.	.	.	.	.	16ff	16a-
.	.	.	.	.	.	.	.	.	16gg	16b-
.	2.r	.	.	.	.	.	.	.	8aa-	8cc
.	.	.	.	.	.	.	.	.	8gg	8b-
.	.	.	.	.	.	.	.	.	8ff	8a-
.	.	.	.	.	.	.	.	.	8gg	8b-
.	.	.	.	.	.	.	.	.	8ff	8a-
.	.	.	.	.	.	.	.	.	8ee-	8g
=90	=90	=90	=90	=90	=90	=90	=90	=90	=90	=90
1r	1r	1r	1r	1r	1r	1r	1r	1r	8dd	8f
.	.	.	.	.	.	.	.	.	16dd	16f
.	.	.	.	.	.	.	.	.	16ee-	16g
.	.	.	.	.	.	.	.	.	8ff	8a-
.	.	.	.	.	.	.	.	.	8ee-	8g
.	.	.	.	.	.	.	.	.	8dd	8f
.	.	.	.	.	.	.	.	.	8ee-	8g
.	.	.	.	.	.	.	.	.	8dd	8f
.	.	.	.	.	.	.	.	.	8cc	8e-
=91	=91	=91	=91	=91	=91	=91	=91	=91	=91	=91
1r	1r	1r	1r	2aa-	2aa-	1r	1r	1r	8b	8d
.	.	.	.	.	.	.	.	.	16b	16d
.	.	.	.	.	.	.	.	.	16cc	16e-
.	.	.	.	.	.	.	.	.	8dd	8f
.	.	.	.	.	.	.	.	.	8cc	8e-
.	.	.	.	8gg	8gg	.	.	.	8b	8d
.	.	.	.	8ff	8ff	.	.	.	8ff	8G
.	.	.	.	8ee-	8ee-	.	.	.	8ee-	8A
.	.	.	.	8dd	8dd	.	.	.	8dd	8B
=92	=92	=92	=92	=92	=92	=92	=92	=92	=92	=92
1r	8r	8r	1r	4cc	4cc	1r	8r	8r	2cc	2c
.	16cc	16c	.	.	.	.	16c	16c	.	.
.	16dd	16d	.	.	.	.	16d	16d	.	.
.	8ee-	8e-	.	2.r	2.r	.	8e-	8e-	.	.
.	8dd	8d	.	.	.	.	8d	8d	.	.
.	8cc	8c	.	.	.	.	8c	8c	2ee-	2e-
.	8g	8G	.	.	.	.	8G	8G	.	.
.	8cc	8c	.	.	.	.	8c	8c	.	.
.	8b-	8B-	.	.	.	.	8B-	8B-	.	.
=93	=93	=93	=93	=93	=93	=93	=93	=93	=93	=93
1r	8a	8A	1r	1r	1r	1r	8A	8A	2ff#	2f#
.	8d	8D	.	.	.	.	8D	8D	.	.
.	8dd	8d	.	.	.	.	8d	8d	.	.
.	8cc	8c	.	.	.	.	8c	8c	.	.
.	8b-	8B-	.	.	.	.	8B-	8B-	2gg	2g
.	8cc	8c	.	.	.	.	8c	8c	.	.
.	8b-	8B-	.	.	.	.	8B-	8B-	.	.
.	8a	8A	.	.	.	.	8A	8A	.	.
=94	=94	=94	=94	=94	=94	=94	=94	=94	=94	=94
1r	8g	8G	1r	1r	1r	1r	8G	8G	2b-	2B-
.	16b-	16B-	.	.	.	.	16B-	16B-	.	.
.	16cc	16c	.	.	.	.	16c	16c	.	.
.	8dd-	8d-	.	.	.	.	8d-	8d-	.	.
.	8cc	8c	.	.	.	.	8c	8c	.	.
.	8b-	8B-	.	.	.	.	8B-	8B-	2dd-	2d-
.	8f	8F	.	.	.	.	8F	8F	.	.
.	8b-	8B-	.	.	.	.	8B-	8B-	.	.
.	8a-	8A-	.	.	.	.	8A-	8A-	.	.
=95	=95	=95	=95	=95	=95	=95	=95	=95	=95	=95
1r	8g	8G	1r	1r	1r	1r	8G	8G	2ee	2e
.	8c	8C	.	.	.	.	8C	8C	.	.
.	8cc	8c	.	.	.	.	8c	8c	.	.
.	8b-	8B-	.	.	.	.	8B-	8B-	.	.
.	8a-	8A-	.	.	.	.	8A-	8A-	4.ff	4.f
.	8b-	8B-	.	.	.	.	8B-	8B-	.	.
.	8a-	8A-	.	.	.	.	8A-	8A-	.	.
.	8g	8G	.	.	.	.	8G	8G	8gg	8g
=96	=96	=96	=96	=96	=96	=96	=96	=96	=96	=96
1r	4f	2.F	1r	1r	1r	1r	2.F	2.F	8aa-	8a-
.	.	.	.	.	.	.	.	.	16ff	16ff
.	.	.	.	.	.	.	.	.	16gg	16gg
.	2.r	.	.	.	.	.	.	.	8aa-	8aa-
.	.	.	.	.	.	.	.	.	8gg	8gg
.	.	.	.	.	.	.	.	.	8ff	8ff
.	.	.	.	.	.	.	.	.	8ee-	8ee-
.	.	4F#	.	.	.	.	4F#	4F#	8dd	8dd
.	.	.	.	.	.	.	.	.	8cc	8cc
=97	=97	=97	=97	=97	=97	=97	=97	=97	=97	=97
1cc	1f 1d	1G	1c	1ff	1dd	2gg	8G	8G	2gg	8b
.	.	.	.	.	.	.	16d	16d	.	16dd
.	.	.	.	.	.	.	16e-	16e-	.	16ee-
.	.	.	.	.	.	.	8f	8f	.	8ff
.	.	.	.	.	.	.	8e-	8e-	.	8ee-
.	.	.	.	.	.	2bb	8d	8d	2bb	8dd
.	.	.	.	.	.	.	8e-	8e-	.	8ee-
.	.	.	.	.	.	.	8d	8d	.	8dd
.	.	.	.	.	.	.	8c	8c	.	8cc
=98	=98	=98	=98	=98	=98	=98	=98	=98	=98	=98
1cc	1f 1d	1G	1c	1ff	1dd	2ccc#	8B	8B	2ccc#	8b
.	.	.	.	.	.	.	16B	16B	.	16b
.	.	.	.	.	.	.	16c	16c	.	16cc
.	.	.	.	.	.	.	8d	8d	.	8dd
.	.	.	.	.	.	.	8c	8c	.	8cc
.	.	.	.	.	.	2ddd	8B	8B	2ddd	8b
.	.	.	.	.	.	.	8G	8G	.	8g
.	.	.	.	.	.	.	8A	8A	.	8a
.	.	.	.	.	.	.	8B	8B	.	8b
=99	=99	=99	=99	=99	=99	=99	=99	=99	=99	=99
[1cc	[1e- 1c	[1G	[1c	[1ee-	[1cc	2gg	8c	8c	2gg	8cc
.	.	.	.	.	.	.	16e-	16e-	.	16ee-
.	.	.	.	.	.	.	16f	16f	.	16ff
.	.	.	.	.	.	.	8g	8g	.	8gg
.	.	.	.	.	.	.	8f	8f	.	8ff
.	.	.	.	.	.	2bb	8e-	8e-	2bb	8ee-
.	.	.	.	.	.	.	8f	8f	.	8ff
.	.	.	.	.	.	.	8e-	8e-	.	8ee-
.	.	.	.	.	.	.	8d	8d	.	8dd
=100	=100	=100	=100	=100	=100	=100	=100	=100	=100	=100
4cc]	1e- 1c_	1G]	4c]	1ee-_	1cc_	2ddd	8c	8c	2ddd	8cc
.	.	.	.	.	.	.	8G	8G	.	8g
2.r	.	.	2.r	.	.	.	8A	8A	.	8a
.	.	.	.	.	.	.	8B	8B	.	8b
.	.	.	.	.	.	2ccc	8c	8c	2ccc	8cc
.	.	.	.	.	.	.	8d	8d	.	8dd
.	.	.	.	.	.	.	8e-	8e-	.	8ee-
.	.	.	.	.	.	.	8c	8c	.	8cc
=101	=101	=101	=101	=101	=101	=101	=101	=101	=101	=101
1r	1e- 1c_	[1F	1r	1ee-_	1cc_	2ff	8A	8A	2ff	8a
.	.	.	.	.	.	.	16c	16c	.	16cc
.	.	.	.	.	.	.	16d	16d	.	16dd
.	.	.	.	.	.	.	8e-	8e-	.	8ee-
.	.	.	.	.	.	.	8d	8d	.	8dd
.	.	.	.	.	.	2aa	8c	8c	2aa	8cc
.	.	.	.	.	.	.	8d	8d	.	8dd
.	.	.	.	.	.	.	8c	8c	.	8cc
.	.	.	.	.	.	.	8B-	8B-	.	8b-
=102	=102	=102	=102	=102	=102	=102	=102	=102	=102	=102
1r	1e- 1c]	1F_	1r	1ee-]	1cc]	2bb	8A	8A	2bb	8a
.	.	.	.	.	.	.	16A	16A	.	16a
.	.	.	.	.	.	.	16B-	16B-	.	16b-
.	.	.	.	.	.	.	8c	8c	.	8cc
.	.	.	.	.	.	.	8B-	8B-	.	8b-
.	.	.	.	.	.	2ccc	8A	8A	2ccc	8a
.	.	.	.	.	.	.	8F	8F	.	8f
.	.	.	.	.	.	.	8G	8G	.	8g
.	.	.	.	.	.	.	8A	8A	.	8a
=103	=103	=103	=103	=103	=103	=103	=103	=103	=103	=103
1r	1d 1B-	1F_	1r	[1dd	[1b-	2ff	8B-	8B-	2ff	8b-
.	.	.	.	.	.	.	16d	16d	.	16dd
.	.	.	.	.	.	.	16e-	16e-	.	16ee-
.	.	.	.	.	.	.	8f	8f	.	8ff
.	.	.	.	.	.	.	8e-	8e-	.	8ee-
.	.	.	.	.	.	2aa	8d	8d	2aa	8dd
.	.	.	.	.	.	.	8e-	8e-	.	8ee-
.	.	.	.	.	.	.	8d	8d	.	8dd
.	.	.	.	.	.	.	8c	8c	.	8cc
=104	=104	=104	=104	=104	=104	=104	=104	=104	=104	=104
1r	1B- 1d	1F]	1r	1dd]	1b-]	2ccc	8B-	8B-	2ccc	8b-
.	.	.	.	.	.	.	8F	8F	.	8f
.	.	.	.	.	.	.	8G	8G	.	8g
.	.	.	.	.	.	.	8A	8A	.	8a
.	.	.	.	.	.	[2bb-	8B-	8B-	[2bb-	8b-
.	.	.	.	.	.	.	8c	8c	.	8cc
.	.	.	.	.	.	.	8d	8d	.	8dd
.	.	.	.	.	.	.	8B-	8B-	.	8b-
=105	=105	=105	=105	=105	=105	=105	=105	=105	=105	=105
1r	2c	2F	1r	2cc	2b-	2bb-]	8c	8c	2bb-]	8cc
.	.	.	.	.	.	.	16c	16c	.	16cc
.	.	.	.	.	.	.	16d	16d	.	16dd
.	.	.	.	.	.	.	8e-	8e-	.	8ee-
.	.	.	.	.	.	.	8d	8d	.	8dd
.	2d	2F#	.	2ccc	2a	2aa	8c	8c	[2aa	8cc
.	.	.	.	.	.	.	8e-	8e-	.	8ee-
.	.	.	.	.	.	.	8d	8d	.	8dd
.	.	.	.	.	.	.	8c	8c	.	8cc
=106	=106	=106	=106	=106	=106	=106	=106	=106	=106	=106
1r	2d	2G	1r	2bb-	2a	2aa	1B-	1B-	8aa]	2b-
.	.	.	.	.	.	.	.	.	8dd	.
.	.	.	.	.	.	.	.	.	8ee	.
.	.	.	.	.	.	.	.	.	8ff#	.
.	2d	2B-	.	2gg	2g	8gg	.	.	8gg	2dd
.	.	.	.	.	.	8aa	.	.	8aa	.
.	.	.	.	.	.	8bb-	.	.	8bb-	.
.	.	.	.	.	.	8gg	.	.	8gg	.
=107	=107	=107	=107	=107	=107	=107	=107	=107	=107	=107
1r	2c#	2c#	1r	2ee	2g	2ee	2c#	2c#	8ee	2ee 2a
.	.	.	.	.	.	.	.	.	8a	.
.	.	.	.	.	.	.	.	.	8aa	.
.	.	.	.	.	.	.	.	.	8gg	.
.	2d	8d	.	4ff	4f	2ff	2d	2d	4ff	2ff 2a
.	.	8D	.	.	.	.	.	.	.	.
.	.	8E	.	4r	4r	.	.	.	[4ff	.
.	.	8F	.	.	.	.	.	.	.	.
=108	=108	=108	=108	=108	=108	=108	=108	=108	=108	=108
1r	2.B-	2.G	1r	1r	1r	8ff	2.G	2.G	8ff]	8ff
.	.	.	.	.	.	16gg	.	.	16gg	16gg
.	.	.	.	.	.	16ff	.	.	16ff	16ff
.	.	.	.	.	.	8ee	.	.	8ee	8ee
.	.	.	.	.	.	8ff	.	.	8ff	8ff
.	.	.	.	.	.	8gg	.	.	8gg	8gg
.	.	.	.	.	.	8aa	.	.	8aa	8aa
.	4B	4G#	.	.	.	8bb-	4G#	4G#	8bb-	8bb-
.	.	.	.	.	.	8dd	.	.	8dd	8dd
=109	=109	=109	=109	=109	=109	=109	=109	=109	=109	=109
[1dd	4A	4A	[1dd	3..r	3..r	4aa	4A	4A	8cc#	8cc#
.	.	.	.	.	.	.	.	.	16cc#	16cc#
.	.	.	.	.	.	.	.	.	16ee	16ee
.	4.r	4.r	.	.	.	4.r	4.r	4.r	8aa	8aa
.	.	.	.	.	.	.	.	.	8aa	8aa
.	.	.	.	.	.	.	.	.	8aa	8aa
.	.	.	.	24r	24r	.	.	.	.	.
.	8A	8A	.	8gg	8ee	8aa	8A	8A	8gg	8ee
.	8A	8A	.	8ff	8dd	8aa	8A	8A	8ff	8dd
.	8A	8A	.	8ee	8cc#	8aa	8A	8A	8ee	8cc#
=110	=110	=110	=110	=110	=110	=110	=110	=110	=110	=110
1dd_	4A	4A	1dd_	4ff	4dd	4aa	4A	4A	8ff	8dd
.	.	.	.	.	.	.	.	.	16dd	16dd
.	.	.	.	.	.	.	.	.	16ff	16ff
.	4.r	4.r	.	4.r	4.r	4.r	4.r	4.r	8aa	8aa
.	.	.	.	.	.	.	.	.	8aa	8aa
.	.	.	.	.	.	.	.	.	8aa	8aa
.	8A	8A	.	8ff	8dd	8aa	8A	8A	8ff	8dd
.	8A	8A	.	8ee	8cc#	8aa	8A	8A	8ee	8cc#
.	8A	8A	.	8dd	8b	8aa	8A	8A	8dd	8b
=111	=111	=111	=111	=111	=111	=111	=111	=111	=111	=111
1dd]	4A	4A	1dd]	4cc#	4a	4aa	4A	4A	8cc#	8a
.	.	.	.	.	.	.	.	.	16cc#	16cc#
.	.	.	.	.	.	.	.	.	16ee	16ee
.	4.r	4.r	.	4.r	4.r	4.r	4.r	4.r	8aa	8aa
.	.	.	.	.	.	.	.	.	8aa	8aa
.	.	.	.	.	.	.	.	.	8aa	8aa
.	8A	8A	.	8gg	8ee	8aa	8A	8A	8gg	8ee
.	8A	8A	.	8ff	8dd	8aa	8A	8A	8ff	8dd
.	8A	8A	.	8ee	8cc#	8aa	8A	8A	8ee	8cc#
=112	=112	=112	=112	=112	=112	=112	=112	=112	=112	=112
[1dd	4A	4A	[1dd	4ff	4dd	4aa	4A	4A	8ff	8dd
.	.	.	.	.	.	.	.	.	16dd	16dd
.	.	.	.	.	.	.	.	.	16ff	16ff
.	4.r	4.r	.	4.r	4.r	4.r	4.r	4.r	8aa	8aa
.	.	.	.	.	.	.	.	.	8aa	8aa
.	.	.	.	.	.	.	.	.	8aa	8aa
.	8A	8A	.	8ff	8dd	8aa	8A	8A	8ff	8dd
.	8A	8A	.	8ee	8cc#	8aa	8A	8A	8ee	8cc#
.	8A	8A	.	8dd	8b	8aa	8A	8A	8dd	8b
=113	=113	=113	=113	=113	=113	=113	=113	=113	=113	=113
4dd]	2c#	[1AA	4dd]	4aa	4a	[3..aa	[1AA	[1AA	8cc#	2a
.	.	.	.	.	.	.	.	.	16cc#	.
.	.	.	.	.	.	.	.	.	16ee	.
2.r	.	.	2.r	2.r	2.r	.	.	.	8aa	.
.	.	.	.	.	.	.	.	.	8aa	.
.	2d	.	.	.	.	.	.	.	8aa	2f
.	.	.	.	.	.	24aa]	.	.	.	.
.	.	.	.	.	.	16dd	.	.	16dd	.
.	.	.	.	.	.	16ff	.	.	16ff	.
.	.	.	.	.	.	8bb-	.	.	8bb-	.
.	.	.	.	.	.	8bb-	.	.	8bb-	.
=114	=114	=114	=114	=114	=114	=114	=114	=114	=114	=114
1r	2e	1AA]	1r	1r	1r	8bb-	1AA]	1AA]	8bb-	2g
.	.	.	.	.	.	16ee	.	.	16ee	.
.	.	.	.	.	.	16gg	.	.	16gg	.
.	.	.	.	.	.	8ccc#	.	.	8ccc#	.
.	.	.	.	.	.	8ccc#	.	.	8ccc#	.
.	2f	.	.	.	.	8ddd	.	.	8ddd	2a
.	.	.	.	.	.	16ff	.	.	16ff	.
.	.	.	.	.	.	16aa	.	.	16aa	.
.	.	.	.	.	.	8ddd	.	.	8ddd	.
.	.	.	.	.	.	8ddd	.	.	8ddd	.
=115	=115	=115	=115	=115	=115	=115	=115	=115	=115	=115
[1g	2B-	2B-	[1G	[1ddd	[1ff	8ddd	2BB-	2BB-	8ddd	[1ff 1dd
.	.	.	.	.	.	16ff	.	.	16ff	.
.	.	.	.	.	.	16bb-	.	.	16bb-	.
.	.	.	.	.	.	8ddd	.	.	8ddd	.
.	.	.	.	.	.	8ddd	.	.	8ddd	.
.	2A	2A	.	.	.	8ddd	2AA	2AA	8ddd	.
.	.	.	.	.	.	16ff	.	.	16ff	.
.	.	.	.	.	.	16aa	.	.	16aa	.
.	.	.	.	.	.	8ddd	.	.	8ddd	.
.	.	.	.	.	.	8ddd	.	.	8ddd	.
=116	=116	=116	=116	=116	=116	=116	=116	=116	=116	=116
4g]	4G#	4G#	4G]	4ddd]	4ff]	4ddd	4GG#	4GG#	4ddd	4ff 4dd]
2.r	2.r	2.r	2.r	2.r	2.r	2.r	2.r	2.r	2.r	2.r
=117	=117	=117	=117	=117	=117	=117	=117	=117	=117	=117
1r	1r	1r	1r	1r	1r	1r	1r	1r	1r	1r
=118	=118	=118	=118	=118	=118	=118	=118	=118	=118	=118
1r	1d	1BB-	1r	1r	1r	1r	1r	1r	2d	1G#
.	.	.	.	.	.	.	.	.	2f	.
=119	=119	=119	=119	=119	=119	=119	=119	=119	=119	=119
1r	2.d	1AA	1r	1r	1r	1r	1r	1r	2g#	2.f
.	.	.	.	.	.	.	.	.	4a	.
.	4A	.	.	.	.	.	.	.	4c#	4e
=120	=120	=120	=120	=120	=120	=120	=120	=120	=120	=120
[1g	[1D	4DD	[1G	1r	1r	1r	1r	1r	4d	[1d
.	.	2.r	.	.	.	.	.	.	2.r	.
=121	=121	=121	=121	=121	=121	=121	=121	=121	=121	=121
1g_	1D_	1r	1G_	1r	1r	1r	1r	1r	1r	1d_
=122	=122	=122	=122	=122	=122	=122	=122	=122	=122	=122
1g_	1D_	1r	1G_	1r	1r	1r	1r	1r	1r	1d_
=123	=123	=123	=123	=123	=123	=123	=123	=123	=123	=123
1g_	1D]	1r	1G_	1r	1r	1r	1r	1r	1r	1d]
=124	=124	=124	=124	=124	=124	=124	=124	=124	=124	=124
1g]	[1A	[1D	1G]	1r	1r	1r	[1A	[1A	2f#	[1c
.	.	.	.	.	.	.	.	.	2a	.
=125	=125	=125	=125	=125	=125	=125	=125	=125	=125	=125
1r	1A]	1D_	1r	1r	1r	1r	1A]	1A]	2b	1c]
.	.	.	.	.	.	.	.	.	4cc	.
.	.	.	.	.	.	.	.	.	4f#	.
=126	=126	=126	=126	=126	=126	=126	=126	=126	=126	=126
1r	[1G	1D_	1r	1r	1r	1r	[1G	[1G	2g	[1B-
.	.	.	.	.	.	.	.	.	2b-	.
=127	=127	=127	=127	=127	=127	=127	=127	=127	=127	=127
1r	1G]	1D_	1r	1r	1r	1r	1G]	1G]	2cc#	1B-]
.	.	.	.	.	.	.	.	.	4dd	.
.	.	.	.	.	.	.	.	.	4g	.
=128	=128	=128	=128	=128	=128	=128	=128	=128	=128	=128
1r	[1c	1D_	1r	1r	1r	1r	[1c	[1c	2a	[1f# 1A
.	.	.	.	.	.	.	.	.	2cc	.
=129	=129	=129	=129	=129	=129	=129	=129	=129	=129	=129
1r	1c]	1D]	1r	1r	1r	1r	1c]	1c]	2ee-	1f# 1A]
.	.	.	.	.	.	.	.	.	2ff#	.
=130	=130	=130	=130	=130	=130	=130	=130	=130	=130	=130
[1cc	8B-	8G	[1c	1gg	1b-	2gg	[1B-	[1B-	2gg	2g
.	8B-	8G	.	.	.	.	.	.	.	.
.	8B-	8G	.	.	.	.	.	.	.	.
.	8B-	8G	.	.	.	.	.	.	.	.
.	8B-	8G	.	.	.	2bb-	.	.	2bb-	2b-
.	8B-	8G	.	.	.	.	.	.	.	.
.	8B-	8G	.	.	.	.	.	.	.	.
.	8B-	8G	.	.	.	.	.	.	.	.
=131	=131	=131	=131	=131	=131	=131	=131	=131	=131	=131
1cc]	8B-	8G	1c]	2ccc#	2ccc#	1bb-	2.B-]	2.B-]	2ccc#	2cc#
.	8B-	8G	.	.	.	.	.	.	.	.
.	8B-	8G	.	.	.	.	.	.	.	.
.	8B-	8G	.	.	.	.	.	.	.	.
.	8B-	8G	.	4ddd	4ddd	.	.	.	4ddd	4dd
.	8B-	8G	.	.	.	.	.	.	.	.
.	8B-	8G	.	4ddd	4ddd	.	4G	4G	8.ddd	8.dd
.	8B-	8G	.	.	.	.	.	.	.	.
.	.	.	.	.	.	.	.	.	16ddd	16dd
=132	=132	=132	=132	=132	=132	=132	=132	=132	=132	=132
1g	8A	8F#	1G	1aa	1dd	1ddd	[1A	[1A	4ddd	4dd
.	8A	8F#	.	.	.	.	.	.	.	.
.	8A	8F#	.	.	.	.	.	.	8.aa	8.a
.	8A	8F#	.	.	.	.	.	.	.	.
.	.	.	.	.	.	.	.	.	16aa	16a
.	8A	8F#	.	.	.	.	.	.	4aa	4a
.	8A	8F#	.	.	.	.	.	.	.	.
.	8A	8F#	.	.	.	.	.	.	8.dd	8.d
.	8A	8F#	.	.	.	.	.	.	.	.
.	.	.	.	.	.	.	.	.	16dd	16d
=133	=133	=133	=133	=133	=133	=133	=133	=133	=133	=133
4g	4A	4F#	4G	4aa	4dd	4ddd	4A]	4A]	4dd	4d
2.r	2.r	2.r	2.r	2.r	2.r	2.r	2.r	2.r	2.r	2.r
=134	=134	=134	=134	=134	=134	=134	=134	=134	=134	=134
1r	8A	8F#	1r	1cc	1a	2cc	1A	1A	2cc	2c
.	8A	8F#	.	.	.	.	.	.	.	.
.	8A	8F#	.	.	.	.	.	.	.	.
.	8A	8F#	.	.	.	.	.	.	.	.
.	8A	8F#	.	.	.	2ee-	.	.	2ee-	2e-
.	8A	8F#	.	.	.	.	.	.	.	.
.	8A	8F#	.	.	.	.	.	.	.	.
.	8A	8F#	.	.	.	.	.	.	.	.
=135	=135	=135	=135	=135	=135	=135	=135	=135	=135	=135
1r	8A	8F#	1r	1ee-	[1cc	2bb-	1c	1c	2bb-	2b-
.	8A	8F#	.	.	.	.	.	.	.	.
.	8A	8F#	.	.	.	.	.	.	.	.
.	8A	8F#	.	.	.	.	.	.	.	.
.	8A	8F#	.	.	.	4aa	.	.	4aa	4a
.	8A	8F#	.	.	.	.	.	.	.	.
.	8A	8F#	.	.	.	4ccc	.	.	8.ccc	8.cc
.	8A	8F#	.	.	.	.	.	.	.	.
.	.	.	.	.	.	.	.	.	16ccc	16cc
=136	=136	=136	=136	=136	=136	=136	=136	=136	=136	=136
1g	8d 8A	8F#	1G	1dd	2cc]	1ccc	1A	1A	4ccc	4cc
.	8d 8A	8F#	.	.	.	.	.	.	.	.
.	8d 8A	8F#	.	.	.	.	.	.	8.dd	8.d
.	8d 8A	8F#	.	.	.	.	.	.	.	.
.	.	.	.	.	.	.	.	.	16dd	16d
.	8d 8A	8F#	.	.	2a	.	.	.	4dd	4d
.	8A 8d	8F#	.	.	.	.	.	.	.	.
.	8d 8A	8F#	.	.	.	.	.	.	8.ccc	8.cc
.	8A 8d	8F#	.	.	.	.	.	.	.	.
.	.	.	.	.	.	.	.	.	16ccc	16cc
=137	=137	=137	=137	=137	=137	=137	=137	=137	=137	=137
4cc	4B- 4d	4G	4c	4dd	4b-	4bb-	4G	4G	4bb-	4b-
2.r	2.r	2.r	2.r	2.r	2.r	2.r	2.r	2.r	2.r	2.r
=138	=138	=138	=138	=138	=138	=138	=138	=138	=138	=138
1cc	8B-	8G	1c	2ee-	1b-	2ee-	1B-	1B-	2ee-	2e-
.	8B-	8G	.	.	.	.	.	.	.	.
.	8B-	8G	.	.	.	.	.	.	.	.
.	8B-	8G	.	.	.	.	.	.	.	.
.	8B-	8G	.	2gg	.	2gg	.	.	2gg	2g
.	8B-	8G	.	.	.	.	.	.	.	.
.	8B-	8G	.	.	.	.	.	.	.	.
.	8B-	8G	.	.	.	.	.	.	.	.
=139	=139	=139	=139	=139	=139	=139	=139	=139	=139	=139
2cc	8A	8G	2c	2cc#	2.a	2cc#	2.A	2.A	2cc#	2c#
.	8A	8G	.	.	.	.	.	.	.	.
.	8A	8G	.	.	.	.	.	.	.	.
.	8A	8G	.	.	.	.	.	.	.	.
4g	4A	4F#	4G	4dd	.	4dd	.	.	4dd	4d
4g	8.A	8.F#	4G	4ccc	4dd	4aa	4F#	4F#	8.cc	8.d
.	16A	16F#	.	.	.	.	.	.	16cc	16d
=140	=140	=140	=140	=140	=140	=140	=140	=140	=140	=140
4g	8.G	8.G	4G	4bb	4dd	4dd	4G	4G	8.b	8.d
.	16G	16G	.	.	.	.	.	.	16b	16d
4g	8.G	8.GG	4G	4bb-	4d	4bb-	4GG	4GG	8.b-	8.d
.	16G	16GG	.	.	.	.	.	.	16b-	16d
4cc	8.c	8.C	4c	4aa	4e-	4aa	4C	4C	8.a	8.e-
.	16c	16C	.	.	.	.	.	.	16a	16e-
4cc	8.c#	8.C#	4c	4gg	4e	4gg	4C#	4C#	8.g	8.e
.	16c#	16C#	.	.	.	.	.	.	16g	16e
=141	=141	=141	=141	=141	=141	=141	=141	=141	=141	=141
4g	4d	4D	4G	4dd	4d	4dd	4D	4D	4d	4d
8.g	2r	2r	8.G	8.dd	8.d	8.ddd	8.D	8.D	2r	2r
16g	.	.	16G	16dd	16d	16ddd	16D	16D	.	.
4g	.	.	4G	4dd	4d	4ddd	4D	4D	.	.
4r	8.d	8.D	4r	4r	4r	4r	4r	4r	8.gg	8.b-
.	16d	16D	.	.	.	.	.	.	16gg	16b-
=142	=142	=142	=142	=142	=142	=142	=142	=142	=142	=142
4r	4d	4D	4r	4r	4r	4r	4r	4r	4ff#	4a
8.g	2r	2r	8.G	8.dd	8.d	8.ddd	8.D	8.D	2r	2r
16g	.	.	16G	16dd	16d	16ddd	16D	16D	.	.
4g	.	.	4G	4dd	4d	4ddd	4D	4D	.	.
4r	8.d	8.D	4r	4r	4r	4r	4r	4r	8.bb-	8.gg
.	16d	16D	.	.	.	.	.	.	16bb-	16gg
=143	=143	=143	=143	=143	=143	=143	=143	=143	=143	=143
4r	4d	4D	4r	4r	4r	4r	4r	4r	4aa	4ff#
8.g	2r	2r	8.G	8.dd	8.d	8.ddd	8.D	8.D	2r	2r
16g	.	.	16G	16dd	16d	16ddd	16D	16D	.	.
4g	.	.	4G	4dd	4d	4ddd	4D	4D	.	.
4r	8.d	8.D	4r	4r	4r	4r	4r	4r	8.gg	8.b-
.	16d	16D	.	.	.	.	.	.	16gg	16b-
=144	=144	=144	=144	=144	=144	=144	=144	=144	=144	=144
4r	4d	4D	4r	4r	4r	4r	4r	4r	4ff#	4a
8.g	2r	2r	8.G	8.dd	8.d	8.ddd	8.D	8.D	2r	2r
16g	.	.	16G	16dd	16d	16ddd	16D	16D	.	.
4g	.	.	4G	4dd	4d	4ddd	4D	4D	.	.
8.cc	8.d	8.D	8.c	8.gg	8.cc#	8.ccc#	8.E-	8.E-	8.ccc#	8.gg
16cc	16d	16D	16c	16gg	16cc#	16ccc#	16E-	16E-	16ccc#	16gg
=145	=145	=145	=145	=145	=145	=145	=145	=145	=145	=145
4g	4d	4D	4G	4ff#	4dd	4ddd	4D	4D	4ddd	4ff#
2.r	2.r	2.r	2.r	2.r	2.r	2.r	2.r	2.r	2.r	2.r
=146	=146	=146	=146	=146	=146	=146	=146	=146	=146	=146
1cc	8g	8G	1e	2dd	1b	8gg	4G	4G	8gg	4gg 4b
.	8g	8G	.	.	.	16dd	.	.	16dd	.
.	.	.	.	.	.	16gg	.	.	16gg	.
.	8g	8G	.	.	.	8bb	2.r	2.r	8bb	2gg 2b
.	8g	8G	.	.	.	8bb	.	.	8bb	.
.	8g	8G	.	2gg	.	8bb	.	.	8bb	.
.	8g	8G	.	.	.	16gg	.	.	16gg	.
.	.	.	.	.	.	16bb	.	.	16bb	.
.	8g	8G	.	.	.	8ddd	.	.	8ddd	4gg 4b
.	8g	8G	.	.	.	8ddd	.	.	8ddd	.
=147	=147	=147	=147	=147	=147	=147	=147	=147	=147	=147
1dd	1a	1D	1g	1ff#	1cc	8ddd	4D	4D	8ddd	1cc 1ff#
.	.	.	.	.	.	8ccc	.	.	8ccc	.
.	.	.	.	.	.	8bb	4F#	4F#	8bb	.
.	.	.	.	.	.	8aa	.	.	8aa	.
.	.	.	.	.	.	8gg	4A	4A	8gg	.
.	.	.	.	.	.	8ff#	.	.	8ff#	.
.	.	.	.	.	.	8aa	4d	4d	8aa	.
.	.	.	.	.	.	8ccc	.	.	8ccc	.
=148	=148	=148	=148	=148	=148	=148	=148	=148	=148	=148
1cc	8g	8G	1e	4gg	4b	8bb	4G	4G	8bb	4gg 4b
.	8g	8G	.	.	.	16dd	.	.	16dd	.
.	.	.	.	.	.	16gg	.	.	16gg	.
.	8g	8G	.	2bb	2dd	8bb	2.r	2.r	8bb	2gg 2b
.	8g	8G	.	.	.	8bb	.	.	8bb	.
.	8g	8G	.	.	.	8bb	.	.	8bb	.
.	8g	8G	.	.	.	16gg	.	.	16gg	.
.	.	.	.	.	.	16bb	.	.	16bb	.
.	8g	8G	.	4gg	4b	8ddd	.	.	8ddd	4gg 4b
.	8g	8G	.	.	.	8ddd	.	.	8ddd	.
=149	=149	=149	=149	=149	=149	=149	=149	=149	=149	=149
1dd	1a	1D	1g	1ff#	1cc	8ddd	4D	4D	8ddd	1ff# 1cc
.	.	.	.	.	.	8ccc	.	.	8ccc	.
.	.	.	.	.	.	8bb	4F#	4F#	8bb	.
.	.	.	.	.	.	8aa	.	.	8aa	.
.	.	.	.	.	.	8gg	4A	4A	8gg	.
.	.	.	.	.	.	8ff#	.	.	8ff#	.
.	.	.	.	.	.	8aa	4d	4d	8aa	.
.	.	.	.	.	.	8ccc	.	.	8ccc	.
=150	=150	=150	=150	=150	=150	=150	=150	=150	=150	=150
2cc	8g	8G	2e	4gg	[3..b	8bb	4G	4G	8bb	8gg 8b
.	8g	8G	.	.	.	16gg	.	.	16gg	16gg
.	.	.	.	.	.	16bb	.	.	16bb	16bb
.	8g	8G	.	4.bb	.	8ddd	4.r	4.r	8ddd	8ddd
.	8g	8G	.	.	.	8ddd	.	.	8ddd	8ddd
2r	8g	8G	2r	.	.	8ddd	.	.	8ddd	8ddd
.	.	.	.	.	24b]	.	.	.	.	.
.	8B	8GG	.	8b	8b	8ddd	8BB	8BB	8ddd	8ddd
.	8c	8AA	.	8cc	8cc	8ccc	8C	8C	8ccc	8ccc
.	8d	8BB	.	8dd	8dd	8bb	8D	8D	8bb	8bb
=151	=151	=151	=151	=151	=151	=151	=151	=151	=151	=151
1r	8e	8C	1r	2ee	[1ee	8aa	1E	1E	8aa	8aa
.	8e	8C	.	.	.	16a	.	.	16a	16a
.	.	.	.	.	.	16cc	.	.	16cc	16cc
.	8e	8C	.	.	.	8ee	.	.	8ee	8ee
.	8e	8C	.	.	.	8ee	.	.	8ee	8ee
.	8e	8C	.	2aa	.	8ee	.	.	8ee	8ee
.	8e	8C	.	.	.	16cc	.	.	16cc	16cc
.	.	.	.	.	.	16ee	.	.	16ee	16ee
.	8e	8C	.	.	.	8aa	.	.	8aa	8aa
.	8e	8C	.	.	.	8aa	.	.	8aa	8aa
=152	=152	=152	=152	=152	=152	=152	=152	=152	=152	=152
1r	8e	8C	1r	2ccc	3..ee_	8aa	2E	2E	8aa	8aa
.	8e	8C	.	.	.	16ee	.	.	16ee	16ee
.	.	.	.	.	.	16aa	.	.	16aa	16aa
.	8e	8C	.	.	.	8ccc	.	.	8ccc	8ccc
.	8e	8C	.	.	.	8ccc	.	.	8ccc	8ccc
.	8ee	8C	.	8ccc	.	8ccc	8e	8e	8ccc	8ccc
.	.	.	.	.	24ee]	.	.	.	.	.
.	8cc	8C	.	8aa	8cc	8aa	8c	8c	8aa	8aa
.	8ee	8C	.	8ccc	8ee]	8ccc	8e	8e	8ccc	8ccc
.	8cc	8C	.	8aa	8cc	8aa	8c	8c	8aa	8aa
=153	=153	=153	=153	=153	=153	=153	=153	=153	=153	=153
1r	4b	4D	1r	4gg	4b	4gg	4B	4B	8gg	8gg
.	.	.	.	.	.	.	.	.	16bb	16bb
.	.	.	.	.	.	.	.	.	16ccc	16ccc
.	2.r	2.r	.	2.r	2.r	2.r	2.r	2.r	8ddd	8ddd
.	.	.	.	.	.	.	.	.	8ccc	8ccc
.	.	.	.	.	.	.	.	.	8bb	8bb
.	.	.	.	.	.	.	.	.	8aa	8aa
.	.	.	.	.	.	.	.	.	8gg	8gg
.	.	.	.	.	.	.	.	.	8ff#	8ff#
=154	=154	=154	=154	=154	=154	=154	=154	=154	=154	=154
1r	1r	1r	1r	1r	1r	1r	1r	1r	8ee	8ee
.	.	.	.	.	.	.	.	.	8dd	8dd
.	.	.	.	.	.	.	.	.	8cc	8cc
.	.	.	.	.	.	.	.	.	8b	8b
.	.	.	.	.	.	.	.	.	8a	8a
.	.	.	.	.	.	.	.	.	8g	8g
.	.	.	.	.	.	.	.	.	8f#	8f#
.	.	.	.	.	.	.	.	.	8e	8e
=155	=155	=155	=155	=155	=155	=155	=155	=155	=155	=155
1r	1r	1r	1r	1r	1r	1r	1r	1r	8d	8d
.	.	.	.	.	.	.	.	.	8r	8r
.	.	.	.	.	.	.	.	.	8c#	8c#
.	.	.	.	.	.	.	.	.	8r	8r
.	.	.	.	.	.	.	.	.	8c	8c
.	.	.	.	.	.	.	.	.	8r	8r
.	.	.	.	.	.	.	.	.	8B	8B
.	.	.	.	.	.	.	.	.	8r	8r
=156	=156	=156	=156	=156	=156	=156	=156	=156	=156	=156
1r	2G	1D	1r	1r	1r	1r	1r	1r	1A	1A
.	2F#	.	.	.	.	.	.	.	.	.
=157	=157	=157	=157	=157	=157	=157	=157	=157	=157	=157
1r	4G	4GG	1r	1r	1r	1r	1r	1r	4G	4G
.	2.r	2.r	.	.	.	.	.	.	4r	4r
.	.	.	.	.	.	.	.	.	8g	8g
.	.	.	.	.	.	.	.	.	8r	8r
.	.	.	.	.	.	.	.	.	8g	8g
.	.	.	.	.	.	.	.	.	8r	8r
=158	=158	=158	=158	=158	=158	=158	=158	=158	=158	=158
1r	1r	1r	1r	1r	1r	1r	1r	1r	8a	8a
.	.	.	.	.	.	.	.	.	4.r	4.r
.	.	.	.	.	.	.	.	.	8dd	8dd
.	.	.	.	.	.	.	.	.	8r	8r
.	.	.	.	.	.	.	.	.	8dd	8dd
.	.	.	.	.	.	.	.	.	8r	8r
=159	=159	=159	=159	=159	=159	=159	=159	=159	=159	=159
1r	1r	1r	1r	1r	1r	1r	1r	1r	4cc	4cc
.	.	.	.	.	.	.	.	.	4b	4b
.	.	.	.	.	.	.	.	.	8g	8g
.	.	.	.	.	.	.	.	.	8r	8r
.	.	.	.	.	.	.	.	.	8g	8g
.	.	.	.	.	.	.	.	.	8r	8r
=160	=160	=160	=160	=160	=160	=160	=160	=160	=160	=160
1r	1r	1r	1r	1r	1r	1r	1r	1r	8a	8a
.	.	.	.	.	.	.	.	.	4.r	4.r
.	.	.	.	.	.	.	.	.	8dd	8dd
.	.	.	.	.	.	.	.	.	8r	8r
.	.	.	.	.	.	.	.	.	8dd	8dd
.	.	.	.	.	.	.	.	.	8r	8r
=161	=161	=161	=161	=161	=161	=161	=161	=161	=161	=161
1r	1r	1r	1r	1r	1r	1r	1r	1r	4cc	4cc
.	.	.	.	.	.	.	.	.	4b	4b
.	.	.	.	.	.	.	.	.	8gg	8gg
.	.	.	.	.	.	.	.	.	8r	8r
.	.	.	.	.	.	.	.	.	8gg	8gg
.	.	.	.	.	.	.	.	.	8r	8r
=162	=162	=162	=162	=162	=162	=162	=162	=162	=162	=162
1r	1r	1r	1r	1r	1r	1r	1r	1r	16ff#	16ff#
.	.	.	.	.	.	.	.	.	16ee	16ee
.	.	.	.	.	.	.	.	.	8r	8r
.	.	.	.	.	.	.	.	.	16dd	16dd
.	.	.	.	.	.	.	.	.	16cc	16cc
.	.	.	.	.	.	.	.	.	8r	8r
.	.	.	.	.	.	.	.	.	16b	16b
.	.	.	.	.	.	.	.	.	16a	16a
.	.	.	.	.	.	.	.	.	8r	8r
.	.	.	.	.	.	.	.	.	16cc	16cc
.	.	.	.	.	.	.	.	.	16a	16a
.	.	.	.	.	.	.	.	.	8r	8r
=163	=163	=163	=163	=163	=163	=163	=163	=163	=163	=163
1r	1r	1r	1r	1r	1r	1r	1r	1r	[3..g	8g
.	.	.	.	.	.	.	.	.	.	8d
.	.	.	.	.	.	.	.	.	.	8B
.	.	.	.	.	.	.	.	.	.	8d
.	.	.	.	.	.	.	.	.	.	8B
.	.	.	.	.	.	.	.	.	24g]	.
.	.	.	.	.	.	.	.	.	8b	8d
.	.	.	.	.	.	.	.	.	8a	8c
.	.	.	.	.	.	.	.	.	8f#	8A
=164	=164	=164	=164	=164	=164	=164	=164	=164	=164	=164
1r	1r	4G	1r	8.ddd	1r	8.ddd	1r	1r	4g	8g 8G
.	.	.	.	.	.	.	.	.	.	8dd
.	.	.	.	16ddd	.	16ddd	.	.	.	.
.	.	2.r	.	8.ddd	.	8.ddd	.	.	4r	8b
.	.	.	.	.	.	.	.	.	.	8dd
.	.	.	.	16ddd	.	16ddd	.	.	.	.
.	.	.	.	8.ddd	.	8.ddd	.	.	8gg	8g
.	.	.	.	.	.	.	.	.	8r	8dd
.	.	.	.	16ddd	.	16ddd	.	.	.	.
.	.	.	.	8.ddd	.	8.ddd	.	.	8gg	8b
.	.	.	.	.	.	.	.	.	8r	8dd
.	.	.	.	16ddd	.	16ddd	.	.	.	.
=165	=165	=165	=165	=165	=165	=165	=165	=165	=165	=165
1r	1r	4D	1r	8.ddd	1r	8.ddd	1r	1r	8aa	8f#
.	.	.	.	.	.	.	.	.	4.r	8dd
.	.	.	.	16ddd	.	16ddd	.	.	.	.
.	.	2.r	.	8.ddd	.	8.ddd	.	.	.	8a
.	.	.	.	.	.	.	.	.	.	8dd
.	.	.	.	16ddd	.	16ddd	.	.	.	.
.	.	.	.	8.ddd	.	8.ddd	.	.	8ddd	8f#
.	.	.	.	.	.	.	.	.	8r	8dd
.	.	.	.	16ddd	.	16ddd	.	.	.	.
.	.	.	.	8.ddd	.	8.ddd	.	.	8ddd	8a
.	.	.	.	.	.	.	.	.	8r	8dd
.	.	.	.	16ddd	.	16ddd	.	.	.	.
=166	=166	=166	=166	=166	=166	=166	=166	=166	=166	=166
1r	1r	4G	1r	8.ddd	1r	8.ddd	1r	1r	4ccc	8g
.	.	.	.	.	.	.	.	.	.	8dd
.	.	.	.	16ddd	.	16ddd	.	.	.	.
.	.	2.r	.	8.ddd	.	8.ddd	.	.	4bb	8b
.	.	.	.	.	.	.	.	.	.	8dd
.	.	.	.	16ddd	.	16ddd	.	.	.	.
.	.	.	.	8.ddd	.	8.ddd	.	.	8gg	8g
.	.	.	.	.	.	.	.	.	8r	8dd
.	.	.	.	16ddd	.	16ddd	.	.	.	.
.	.	.	.	8.ddd	.	8.ddd	.	.	8gg	8b
.	.	.	.	.	.	.	.	.	8r	8dd
.	.	.	.	16ddd	.	16ddd	.	.	.	.
=167	=167	=167	=167	=167	=167	=167	=167	=167	=167	=167
1r	1r	4D	1r	8.ddd	1r	8.ddd	1r	1r	8aa	8f#
.	.	.	.	.	.	.	.	.	4.r	8dd
.	.	.	.	16ddd	.	16ddd	.	.	.	.
.	.	2.r	.	8.ddd	.	8.ddd	.	.	.	8a
.	.	.	.	.	.	.	.	.	.	8dd
.	.	.	.	16ddd	.	16ddd	.	.	.	.
.	.	.	.	8.ddd	.	8.ddd	.	.	8ddd	8f#
.	.	.	.	.	.	.	.	.	8r	8dd
.	.	.	.	16ddd	.	16ddd	.	.	.	.
.	.	.	.	8.ddd	.	8.ddd	.	.	8ddd	8a
.	.	.	.	.	.	.	.	.	8r	8dd
.	.	.	.	16ddd	.	16ddd	.	.	.	.
=168	=168	=168	=168	=168	=168	=168	=168	=168	=168	=168
1r	1r	4G	1r	8.ddd	1r	8.ddd	1r	1r	4ccc	8g
.	.	.	.	.	.	.	.	.	.	8dd
.	.	.	.	16ddd	.	16ddd	.	.	.	.
.	.	2.r	.	8.ddd	.	8.ddd	.	.	4bb	8b
.	.	.	.	.	.	.	.	.	.	8dd
.	.	.	.	16ddd	.	16ddd	.	.	.	.
.	.	.	.	8.ddd	.	8.ddd	.	.	8gg	8B
.	.	.	.	.	.	.	.	.	8r	8g
.	.	.	.	16ddd	.	16ddd	.	.	.	.
.	.	.	.	8.ddd	.	8.ddd	.	.	8gg	8d
.	.	.	.	.	.	.	.	.	8r	8g
.	.	.	.	16ddd	.	16ddd	.	.	.	.
=169	=169	=169	=169	=169	=169	=169	=169	=169	=169	=169
1r	1r	4C	1r	4eee	1r	4eee	1r	1r	16ff#	4c
.	.	.	.	.	.	.	.	.	16ee	.
.	.	.	.	.	.	.	.	.	8r	.
.	.	2.r	.	2.r	.	2.r	.	.	16dd#	2.r
.	.	.	.	.	.	.	.	.	16ee	.
.	.	.	.	.	.	.	.	.	8r	.
.	.	.	.	.	.	.	.	.	16dd#	.
.	.	.	.	.	.	.	.	.	16ee	.
.	.	.	.	.	.	.	.	.	8r	.
.	.	.	.	.	.	.	.	.	16ccc	.
.	.	.	.	.	.	.	.	.	16aa	.
.	.	.	.	.	.	.	.	.	8r	.
=170	=170	=170	=170	=170	=170	=170	=170	=170	=170	=170
1r	1r	4D	1r	1r	1r	1r	1r	1r	[3..gg	8b
.	.	.	.	.	.	.	.	.	.	8dd
.	.	2.r	.	.	.	.	.	.	.	8b
.	.	.	.	.	.	.	.	.	.	8dd
.	.	.	.	.	.	.	.	.	.	8b
.	.	.	.	.	.	.	.	.	24gg]	.
.	.	.	.	.	.	.	.	.	8bb	8dd
.	.	.	.	.	.	.	.	.	8aa	8cc
.	.	.	.	.	.	.	.	.	8ff#	8a
=171	=171	=171	=171	=171	=171	=171	=171	=171	=171	=171
4cc	4g	4G	4c	4gg	4gg	[1gg	4g	4g	8.gg	8.g
.	.	.	.	.	.	.	.	.	16gg	16g
2.r	4e	4E	2.r	4ee	4ee	.	4e	4e	8.gg	8.g
.	.	.	.	.	.	.	.	.	16gg	16g
.	4c#	4C#	.	4cc#	4cc#	.	4c#	4c#	8.gg	8.g
.	.	.	.	.	.	.	.	.	16gg	16g
.	4d	4D	.	4dd	4dd	.	4d	4d	8.gg	8.g
.	.	.	.	.	.	.	.	.	16gg	16g
=172	=172	=172	=172	=172	=172	=172	=172	=172	=172	=172
1r	4f	4F	1r	4ff	4ff	1gg]	4f	4f	8.gg	8.g
.	.	.	.	.	.	.	.	.	16gg	16g
.	4d	4D	.	4dd	4dd	.	4d	4d	8.gg	8.g
.	.	.	.	.	.	.	.	.	16gg	16g
.	4B	4BB	.	4b	4b	.	4B	4B	8.gg	8.g
.	.	.	.	.	.	.	.	.	16gg	16g
.	4c	4C	.	4cc	4cc	.	4c	4c	8.gg	8.g
.	.	.	.	.	.	.	.	.	16gg	16g
=173	=173	=173	=173	=173	=173	=173	=173	=173	=173	=173
1r	1e	8.c	1r	1ee	1ee	4ee	1e	1e	4ee	4ee
.	.	16c	.	.	.	.	.	.	.	.
.	.	8.c	.	.	.	4ccc	.	.	4cc	4cc
.	.	16c	.	.	.	.	.	.	.	.
.	.	8.c	.	.	.	4gg#	.	.	4g#	4g#
.	.	16c	.	.	.	.	.	.	.	.
.	.	8.c	.	.	.	4aa	.	.	4a	4a
.	.	16c	.	.	.	.	.	.	.	.
=174	=174	=174	=174	=174	=174	=174	=174	=174	=174	=174
2dd	4f#	2c	2g	2ff#	2a	2ff#	2c	2c	4dd	4dd
.	4a	.	.	.	.	.	.	.	12dd	12dd
.	.	.	.	.	.	.	.	.	12ee	12ee
.	.	.	.	.	.	.	.	.	12ff#	12ff#
4ee	4d	4B	4cc	4gg	4b	2gg	4B	4B	12gg	12gg
.	.	.	.	.	.	.	.	.	12ff#	12ff#
.	.	.	.	.	.	.	.	.	12ee	12ee
4r	4g	4BB	4r	4dd	4b	.	4BB	4BB	12dd	12dd
.	.	.	.	.	.	.	.	.	12cc	12cc
.	.	.	.	.	.	.	.	.	12b	12b
=175	=175	=175	=175	=175	=175	=175	=175	=175	=175	=175
2r	4e	2C	2r	4ee	4a	4a	2C	2C	12a	12a
.	.	.	.	.	.	.	.	.	12ee	12ee
.	.	.	.	.	.	.	.	.	12dd	12dd
.	12ee	.	.	12ee	12cc	12ee	.	.	12cc	12cc
.	12dd	.	.	12dd	12b	12dd	.	.	12b	12b
.	12cc	.	.	12cc	12a	12cc	.	.	12a	12a
4ee	4b	2D	4cc	4b	4g	4b	2D	2D	4g	4g
4dd	4a	.	4g	4a	4f#	4a	.	.	4f#	4f#
=176	=176	=176	=176	=176	=176	=176	=176	=176	=176	=176
[1ee	8b	8G	[1cc	2gg	1b	1gg	1G	1G	2gg	2g
.	8b	8G	.	.	.	.	.	.	.	.
.	8b	8G	.	.	.	.	.	.	.	.
.	8b	8G	.	.	.	.	.	.	.	.
.	8b	8G	.	2bb	.	.	.	.	2bb	2b
.	8b	8G	.	.	.	.	.	.	.	.
.	8b	8G	.	.	.	.	.	.	.	.
.	8b	8G	.	.	.	.	.	.	.	.
=177	=177	=177	=177	=177	=177	=177	=177	=177	=177	=177
2.ee]	8b	8G	2.cc]	2dd#	2.b	2ddd#	2.G	2.G	2ddd#	2dd#
.	8b	8G	.	.	.	.	.	.	.	.
.	8b	8G	.	.	.	.	.	.	.	.
.	8b	8G	.	.	.	.	.	.	.	.
.	8b	4G	.	4ee	.	4eee	.	.	4eee	4ee
.	8b	.	.	.	.	.	.	.	.	.
4dd	8.a	8.G	4a	4cc#	4a	8.ccc#	4G	4G	8.ccc#	8.ee
.	16a	16G	.	.	.	16ccc#	.	.	16ccc#	16ee
=178	=178	=178	=178	=178	=178	=178	=178	=178	=178	=178
4dd	8.a	8.F#	4g	4dd	4a	8.ddd	4F#	4F#	8.ddd	8.dd
.	16a	16F#	.	.	.	16ddd	.	.	16ddd	16dd
2.r	8.a	8.G	2.r	4ee	4cc#	8.ccc#	4G	4G	8.ccc#	8.ee
.	16a	16G	.	.	.	16ccc#	.	.	16ccc#	16ee
.	8.a	8.F#	.	4dd	4dd	8.ddd	4F#	4F#	8.ddd	8.dd
.	16a	16F#	.	.	.	16ddd	.	.	16ddd	16dd
.	8.g	8.F	.	4b	4g	8.bb	4F	4F	8.bb	8.dd
.	16g	16F	.	.	.	16bb	.	.	16bb	16dd
=179	=179	=179	=179	=179	=179	=179	=179	=179	=179	=179
1r	8.g	8.E	1r	4cc	4g	8.ccc	4E	4E	8.ccc	8.cc
.	16g	16E	.	.	.	16ccc	.	.	16ccc	16cc
.	8.g	8.F	.	4dd	4b	8.bb	4F	4F	8.bb	8.dd
.	16g	16F	.	.	.	16bb	.	.	16bb	16dd
.	4g	4E	.	4cc	4cc	4cc	4E	4E	4ccc	4cc
.	4c	4C	.	4ee	4ee	4eee	4C	4C	4eee	4ee
=180	=180	=180	=180	=180	=180	=180	=180	=180	=180	=180
4ee	4d	4D	4cc	4dd	4b	4dd	4B	4B	4b 4d 4gg	4gg 4b 4d
4r	4r	4r	4r	4r	4r	4r	4r	4r	4r	4r
4dd	4d	4D	4g	4ff#	4a	4ff#	4A	4A	4ff# 4d 4a	4ff# 4a 4d
4r	4r	4r	4r	4r	4r	4r	4r	4r	4r	4r
=181	=181	=181	=181	=181	=181	=181	=181	=181	=181	=181
1cc	1e	1E	1c	1gg	1cc#	1gg	1E	1E	1gg	1cc#
=182	=182	=182	=182	=182	=182	=182	=182	=182	=182	=182
1r	1r	4D	1r	1r	1r	1r	1r	1r	2f#	2d
.	.	2.r	.	.	.	.	.	.	.	.
.	.	.	.	.	.	.	.	.	2a	2f#
=183	=183	=183	=183	=183	=183	=183	=183	=183	=183	=183
1r	1r	1r	1r	1r	1r	1r	1r	1r	2b	2g#
.	.	.	.	.	.	.	.	.	4cc	4a
.	.	.	.	.	.	.	.	.	4r	4r
=184	=184	=184	=184	=184	=184	=184	=184	=184	=184	=184
1r	2d	2D	1r	1r	1r	1r	1r	1r	8.ddd	2f#
.	.	.	.	.	.	.	.	.	16ddd	.
.	.	.	.	.	.	.	.	.	8.ddd	.
.	.	.	.	.	.	.	.	.	16ddd	.
.	2f#	2F#	.	.	.	.	.	.	8.ddd	2a
.	.	.	.	.	.	.	.	.	16ddd	.
.	.	.	.	.	.	.	.	.	8.ddd	.
.	.	.	.	.	.	.	.	.	16ddd	.
=185	=185	=185	=185	=185	=185	=185	=185	=185	=185	=185
1r	2g#	2G#	1r	1r	1r	1r	1r	1r	8.ddd	2b
.	.	.	.	.	.	.	.	.	16ddd	.
.	.	.	.	.	.	.	.	.	8.ddd	.
.	.	.	.	.	.	.	.	.	16ddd	.
.	4a	4A	.	.	.	.	.	.	8.ddd	4cc
.	.	.	.	.	.	.	.	.	16ddd	.
.	4r	4r	.	.	.	.	.	.	8.ddd	4r
.	.	.	.	.	.	.	.	.	16ddd	.
=186	=186	=186	=186	=186	=186	=186	=186	=186	=186	=186
1r	1r	1r	1r	2ff#	2dd	1r	1r	1r	8.ddd	8.dd
.	.	.	.	.	.	.	.	.	16ddd	16dd
.	.	.	.	.	.	.	.	.	8.ddd	8.dd
.	.	.	.	.	.	.	.	.	16ddd	16dd
.	.	.	.	2aa	2ff#	.	.	.	8.ddd	8.dd
.	.	.	.	.	.	.	.	.	16ddd	16dd
.	.	.	.	.	.	.	.	.	8.ddd	8.dd
.	.	.	.	.	.	.	.	.	16ddd	16dd
=187	=187	=187	=187	=187	=187	=187	=187	=187	=187	=187
1r	3..r	1r	1r	2ccc	2aa	1r	3..r	3..r	8.ddd	8.dd
.	.	.	.	.	.	.	.	.	16ddd	16dd
.	.	.	.	.	.	.	.	.	8.ddd	8.dd
.	.	.	.	.	.	.	.	.	16ddd	16dd
.	.	.	.	8bb	8gg	.	.	.	8ddd	8dd
.	24r	.	.	.	.	.	24r	24r	.	.
.	8G	.	.	8ddd	8bb	.	8G	8G	8ddd	8bb
.	8A	.	.	8ccc	8aa	.	8A	8A	8ccc	8aa
.	8B	.	.	8bb	8gg	.	8B	8B	8bb	8gg
=188	=188	=188	=188	=188	=188	=188	=188	=188	=188	=188
1r	2c	1r	1r	4.aa	4.ee	1r	2c	2c	4.aa	4.ee
.	.	.	.	16bb	16dd	.	.	.	16bb	16dd
.	.	.	.	16ccc	16cc	.	.	.	16ccc	16cc
.	2d	.	.	4gg	4b	.	4d	4d	4gg	4b
.	.	.	.	4ff#	4a	.	4D	4D	4ff#	4a
=189	=189	=189	=189	=189	=189	=189	=189	=189	=189	=189
4cc	12g	12G	4c	4gg	4b	12gg	12G	12G	12gg	12gg
.	12f#	12F#	.	.	.	12ff#	12F#	12F#	12ff#	12ff#
.	12e	12E	.	.	.	12ee	12E	12E	12ee	12ee
4r	12d	12D	4r	4r	4r	12dd	12D	12D	12dd	12dd
.	12c	12C	.	.	.	12cc	12C	12C	12cc	12cc
.	12B	12BB	.	.	.	12b	12BB	12BB	12b	12b
4ee	12b	12B	4e	4bb	4b	12bb	12B	12B	12bb	12bb
.	12a	12A	.	.	.	12aa	12A	12A	12aa	12aa
.	12g	12G	.	.	.	12gg	12G	12G	12gg	12gg
4r	12f#	12F#	4r	4r	4r	12ff#	12F#	12F#	12ff#	12ff#
.	12e	12E	.	.	.	12ee	12E	12E	12ee	12ee
.	12d	12D	.	.	.	12dd	12D	12D	12dd	12dd
=190	=190	=190	=190	=190	=190	=190	=190	=190	=190	=190
4gg	12dd	12d	4g	4ddd	4dd	12ddd	12d	12d	12ddd	12ddd
.	12cc	12c	.	.	.	12ccc	12c	12c	12ccc	12ccc
.	12b	12B	.	.	.	12bb	12B	12B	12bb	12bb
2.r	12cc	12c	2.r	2.r	2.r	12ccc	12c	12c	12ccc	12ccc
.	12b	12B	.	.	.	12bb	12B	12B	12bb	12bb
.	12a	12A	.	.	.	12aa	12A	12A	12aa	12aa
.	12b	12B	.	.	.	12bb	12B	12B	12bb	12bb
.	12a	12A	.	.	.	12aa	12A	12A	12aa	12aa
.	12g	12G	.	.	.	12gg	12G	12G	12gg	12gg
.	12a	12A	.	.	.	12aa	12A	12A	12aa	12aa
.	12g	12G	.	.	.	12gg	12G	12G	12gg	12gg
.	12f#	12F#	.	.	.	12ff#	12F#	12F#	12ff#	12ff#
=191	=191	=191	=191	=191	=191	=191	=191	=191	=191	=191
2r	4g	4G	2r	4r	4r	4gg	4G	4G	4gg	4gg
.	4cc	4c	.	4ee	4cc	4ee	4c	4c	4ee	4cc
4ee	4dd	4d	4cc	4dd	4b	4dd	4d	4d	4dd	4b
4dd	4d	4D	4g	4ff#	4a	4ff#	4D	4D	4ff# 4a	4a 4ff#
=192	=192	=192	=192	=192	=192	=192	=192	=192	=192	=192
4cc	4g	4G	4e	4gg	4b	4gg	4G	4G	4gg 4b	4b 4gg
4r	4r	4r	4r	4r	4r	4r	4r	4r	4r	4r
4cc	4g	4G	4e	4gg	4b	4gg	4G	4G	4gg 4d 4b	4gg 4d 4b
4cc	4g	4G	4e	4gg	4b	4gg	4G	4G	4gg 4b 4d	4gg 4b 4d
=193	=193	=193	=193	=193	=193	=193	=193	=193	=193	=193
4cc	4G	4G	4e	4gg	4b	4gg	4G	4G	4gg 4b 4d	4gg 4b 4d
2.r	2.r	2.r	2.r	2.r	2.r	2.r	2.r	2.r	2.r	2.r
==	==	==	==	==	==	==	==	==	==	==
*-	*-	*-	*-	*-	*-	*-	*-	*-	*-	*-
!!!RWG1: This file contains only pitch and duration data.
!!!RWG2: Transposing instruments are not transposed.
!!!RWG3: Spines may have incompatible meters.
!!!RWG4: Durations of rests and tied notes may be interpreted.
!!!RWG: Key is interpreted using the Humdrum key tool.
!!!OPT: La Poule
!!!AFT: stage1
!!!END: 1997/04/15
!!format changes:
!!content changes:
!!public access: complete
!!!KEY: 695685287
!!!EMD: Converted from MuseData to Humdrum Dec 16, 2000, by Andreas Kornstaedt using muse2kern.
